; G-Code generated by Simplify3D(R) Version 4.0.1
; Mar 21, 2023 at 1:46:11 PM
; Settings Summary
;   processName,Process1
;   applyToModels,BatteryHolder
;   profileName,F410_0.4C_PLA (modified)
;   profileVersion,2022-03-09 09:51:28
;   baseProfile,F400_PLA
;   printMaterial,
;   printQuality,Standard
;   printExtruders,
;   extruderName,Primary Extruder
;   extruderToolheadNumber,0
;   extruderDiameter,0.4
;   extruderAutoWidth,0
;   extruderWidth,0.45
;   extrusionMultiplier,1
;   extruderUseRetract,1
;   extruderRetractionDistance,4.25
;   extruderExtraRestartDistance,0.05
;   extruderRetractionZLift,0
;   extruderRetractionSpeed,24000
;   extruderUseCoasting,0
;   extruderCoastingDistance,0.5
;   extruderUseWipe,0
;   extruderWipeDistance,5
;   primaryExtruder,0
;   layerHeight,0.25
;   topSolidLayers,4
;   bottomSolidLayers,4
;   perimeterOutlines,3
;   printPerimetersInsideOut,0
;   startPointOption,3
;   startPointOriginX,0
;   startPointOriginY,360
;   sequentialIslands,0
;   spiralVaseMode,0
;   firstLayerHeightPercentage,100
;   firstLayerWidthPercentage,100
;   firstLayerUnderspeed,0.4
;   useRaft,0
;   raftExtruder,0
;   raftTopLayers,2
;   raftBaseLayers,0
;   raftOffset,4
;   raftSeparationDistance,0.15
;   raftTopInfill,100
;   aboveRaftSpeedMultiplier,0.3
;   useSkirt,1
;   skirtExtruder,0
;   skirtLayers,1
;   skirtOutlines,1
;   skirtOffset,5
;   usePrimePillar,0
;   primePillarExtruder,999
;   primePillarWidth,12
;   primePillarLocation,7
;   primePillarSpeedMultiplier,1
;   useOozeShield,0
;   oozeShieldExtruder,999
;   oozeShieldOffset,2
;   oozeShieldOutlines,1
;   oozeShieldSidewallShape,1
;   oozeShieldSidewallAngle,30
;   oozeShieldSpeedMultiplier,1
;   infillExtruder,0
;   internalInfillPattern,Rectilinear
;   externalInfillPattern,Rectilinear
;   infillPercentage,25
;   outlineOverlapPercentage,20
;   infillExtrusionWidthPercentage,100
;   minInfillLength,5
;   infillLayerInterval,1
;   internalInfillAngles,45,-45
;   overlapInternalInfillAngles,0
;   externalInfillAngles,45,-45
;   generateSupport,0
;   supportExtruder,0
;   supportInfillPercentage,30
;   supportExtraInflation,0.5
;   supportBaseLayers,0
;   denseSupportExtruder,0
;   denseSupportLayers,0
;   denseSupportInfillPercentage,70
;   supportLayerInterval,1
;   supportHorizontalPartOffset,0.35
;   supportUpperSeparationLayers,1
;   supportLowerSeparationLayers,1
;   supportType,0
;   supportGridSpacing,2
;   maxOverhangAngle,45
;   supportAngles,45
;   temperatureName,Primary Extruder,Heated Bed
;   temperatureNumber,0,2
;   temperatureSetpointCount,1,1
;   temperatureSetpointLayers,1,1
;   temperatureSetpointTemperatures,230,45
;   temperatureStabilizeAtStartup,0,0
;   temperatureHeatedBed,0,1
;   temperatureRelayBetweenLayers,0,0
;   temperatureRelayBetweenLoops,0,0
;   fanLayers,1,3,4,5
;   fanSpeeds,0,25,50,100
;   blipFanToFullPower,0
;   adjustSpeedForCooling,1
;   minSpeedLayerTime,5
;   minCoolingSpeedSlowdown,30
;   increaseFanForCooling,1
;   minFanLayerTime,13
;   maxCoolingFanSpeed,100
;   increaseFanForBridging,1
;   bridgingFanSpeed,100
;   use5D,1
;   relativeEdistances,1
;   allowEaxisZeroing,1
;   independentExtruderAxes,0
;   includeM10123,0
;   stickySupport,1
;   applyToolheadOffsets,0
;   gcodeXoffset,0
;   gcodeYoffset,0
;   gcodeZoffset,0
;   overrideMachineDefinition,1
;   machineTypeOverride,0
;   strokeXoverride,355
;   strokeYoverride,355
;   strokeZoverride,315
;   originOffsetXoverride,0
;   originOffsetYoverride,0
;   originOffsetZoverride,0
;   homeXdirOverride,1
;   homeYdirOverride,-1
;   homeZdirOverride,1
;   flipXoverride,1
;   flipYoverride,-1
;   flipZoverride,1
;   toolheadOffsets,0,0|0,0|0,0|0,0|0,0|0,0
;   overrideFirmwareConfiguration,1
;   firmwareTypeOverride,RepRap (Marlin/Repetier/Sprinter)
;   GPXconfigOverride,r2
;   baudRateOverride,115200
;   overridePrinterModels,0
;   printerModelsOverride
;   startingGcode,M104 S0 ;cancel S3D set temp,G21  ; set units to mm,G90  ; use absolute coordinates,T0  ; select tool 0,G92 E0.0  ; reset e count,M220 S100 ; reset speed multiplier,M140 S[bed2_temperature]  ; set bed temp and do not wait,G32  ; probe bed,M190 S[bed2_temperature]  ; set bed temperature and wait,M109 S[extruder0_temperature]  ; set print head temperature and wait,; === pause for heating ===,; reset filament monitor,M42 P63 S0,G4 P100,G4 P50,M42 P63 S1,;,G1 Z10.0 F2000  ; move up,G1 E30.0 F500  ; prime extruder,G1 X20 Y15 F9000  ; move back,G1 Z0 F1000  ; move down to begin wipe,G1 X150 E4.0 F10000  ; wipe print head (extrude material while we do this),G92 E0.0  ; reset e count
;   layerChangeGcode,
;   retractionGcode,
;   toolChangeGcode,
;   endingGcode,G91  ;relative positioning,G1 E-5.00 F1000  ;retract 5mm of filament,G1 Z+1.00 X-20.0 Y+20.0 F10000  ;short quick move to disengage from print,G90  ;absolute positioning,G1 X0.0 Y350.0 F9000  ; move head to back left corner,G91  ; relative positioning,G1 E-5.00 F500  ;retract additional filament to prevent oozing,G90 ;absolute positioning,M104 S0  ;turn off hotend,M140 S0  ;turn off heatbed,; Reset filament monitor,M42 P63 S0,G4 P100,G4 P50,M42 P63 S1,;,G1 Z315 F1000 ;move print bed down to idle position,M106 S0  ; shut off blower,M84  ;motors off,M561  ;clear bed probe transformation
;   exportFileFormat,gcode
;   celebration,0
;   celebrationSong,Random Song
;   postProcessing,
;   defaultSpeed,6000
;   outlineUnderspeed,0.6
;   solidInfillUnderspeed,0.7
;   supportUnderspeed,1
;   rapidXYspeed,21000
;   rapidZspeed,10000
;   minBridgingArea,50
;   bridgingExtraInflation,0.5
;   bridgingExtrusionMultiplier,1
;   bridgingSpeedMultiplier,0.6
;   useFixedBridgingAngle,0
;   fixedBridgingAngle,0
;   applyBridgingToPerimeters,0
;   filamentDiameters,1.71|1.71|1.71|1.71|1.71|1.71
;   filamentPricesPerKg,46|46|46|46|46|46
;   filamentDensities,1.25|1.25|1.25|1.25|1.25|1.25
;   useMinPrintHeight,0
;   minPrintHeight,13
;   useMaxPrintHeight,0
;   maxPrintHeight,13
;   useDiaphragm,0
;   diaphragmLayerInterval,20
;   robustSlicing,1
;   mergeAllIntoSolid,0
;   onlyRetractWhenCrossingOutline,1
;   retractBetweenLayers,0
;   useRetractionMinTravel,0
;   retractionMinTravel,1
;   retractWhileWiping,0
;   onlyWipeOutlines,1
;   avoidCrossingOutline,0
;   maxMovementDetourFactor,3
;   toolChangeRetractionDistance,0
;   toolChangeExtraRestartDistance,0
;   toolChangeRetractionSpeed,360
;   externalThinWallType,1
;   internalThinWallType,1
;   thinWallAllowedOverlapPercentage,50
;   singleExtrusionMinLength,1
;   singleExtrusionMinPrintingWidthPercentage,50
;   singleExtrusionMaxPrintingWidthPercentage,200
;   singleExtrusionEndpointExtension,0.2
;   horizontalSizeCompensation,0
G90
M83
M106 S0
M104 S0 ;cancel S3D set temp
G21  ; set units to mm
G90  ; use absolute coordinates
T0  ; select tool 0
G92 E0.0  ; reset e count
M220 S100 ; reset speed multiplier
M140 S45  ; set bed temp and do not wait
G32  ; probe bed
M190 S45  ; set bed temperature and wait
M109 S230  ; set print head temperature and wait
; === pause for heating ===
; reset filament monitor
M42 P63 S0
G4 P100
G4 P50
M42 P63 S1
;
G1 Z10.0 F2000  ; move up
G1 E30.0 F500  ; prime extruder
G1 X20 Y15 F9000  ; move back
G1 Z0 F1000  ; move down to begin wipe
G1 X150 E4.0 F10000  ; wipe print head (extrude material while we do this)
G92 E0.0  ; reset e count
G1 E-4.2500 F24000
G1 Z0.250 F10000
; process Process1
; layer 1, Z = 0.250
T0
; tool H0.250 W0.450
; skirt
G1 X155.210 Y169.456 F21000
G1 E4.3000 F7200
G1 X155.221 Y169.446 E0.0007 F2400
G1 X155.960 Y168.879 E0.0456
G1 X155.972 Y168.871 E0.0007
G1 X156.553 Y168.536 E0.0328
G1 X156.566 Y168.529 E0.0007
G1 X157.426 Y168.173 E0.0456
G1 X157.440 Y168.168 E0.0007
G1 X158.087 Y167.995 E0.0328
G1 X158.102 Y167.992 E0.0007
G1 X158.853 Y167.893 E0.0371
G1 X158.860 Y167.892 E0.0004
G1 X159.194 Y167.870 E0.0164
G1 X159.202 Y167.870 E0.0004
G1 X189.400 Y167.870 E1.4793
G1 X189.400 Y156.490 E0.5575
G1 X189.434 Y156.407 E0.0044
G1 X192.426 Y153.415 E0.2073
G1 X192.509 Y153.381 E0.0044
G1 X195.788 Y153.381 E0.1606
G1 X195.795 Y153.381 E0.0004
G1 X196.126 Y153.402 E0.0162
G1 X196.133 Y153.403 E0.0004
G1 X196.893 Y153.502 E0.0375
G1 X196.907 Y153.505 E0.0007
G1 X197.558 Y153.679 E0.0330
G1 X197.572 Y153.683 E0.0007
G1 X198.434 Y154.040 E0.0457
G1 X198.447 Y154.047 E0.0007
G1 X199.028 Y154.382 E0.0328
G1 X199.040 Y154.390 E0.0007
G1 X199.779 Y154.957 E0.0456
G1 X199.790 Y154.967 E0.0007
G1 X200.264 Y155.441 E0.0328
G1 X200.273 Y155.452 E0.0007
G1 X200.840 Y156.191 E0.0456
G1 X200.848 Y156.203 E0.0007
G1 X201.184 Y156.783 E0.0328
G1 X201.190 Y156.797 E0.0007
G1 X201.546 Y157.657 E0.0456
G1 X201.551 Y157.671 E0.0007
G1 X201.725 Y158.318 E0.0328
G1 X201.727 Y158.333 E0.0007
G1 X201.826 Y159.084 E0.0371
G1 X201.827 Y159.091 E0.0004
G1 X201.849 Y159.425 E0.0164
G1 X201.849 Y159.432 E0.0004
G1 X201.850 Y174.262 E0.7264
G1 X201.850 Y174.269 E0.0004
G1 X201.828 Y174.603 E0.0164
G1 X201.827 Y174.611 E0.0004
G1 X201.727 Y175.368 E0.0374
G1 X201.725 Y175.382 E0.0007
G1 X201.551 Y176.029 E0.0328
G1 X201.546 Y176.043 E0.0007
G1 X201.190 Y176.904 E0.0456
G1 X201.184 Y176.917 E0.0007
G1 X200.848 Y177.497 E0.0328
G1 X200.840 Y177.509 E0.0007
G1 X200.273 Y178.248 E0.0456
G1 X200.264 Y178.259 E0.0007
G1 X199.790 Y178.733 E0.0328
G1 X199.779 Y178.743 E0.0007
G1 X199.040 Y179.310 E0.0456
G1 X199.028 Y179.318 E0.0007
G1 X198.447 Y179.653 E0.0328
G1 X198.434 Y179.660 E0.0007
G1 X197.574 Y180.016 E0.0456
G1 X197.560 Y180.021 E0.0007
G1 X196.913 Y180.194 E0.0328
G1 X196.898 Y180.197 E0.0007
G1 X196.147 Y180.296 E0.0371
G1 X196.140 Y180.297 E0.0004
G1 X195.806 Y180.318 E0.0164
G1 X195.798 Y180.319 E0.0004
G1 X165.600 Y180.319 E1.4793
G1 X165.599 Y195.568 E0.7470
G1 X165.599 Y195.575 E0.0004
G1 X165.577 Y195.909 E0.0164
G1 X165.576 Y195.916 E0.0004
G1 X165.477 Y196.667 E0.0371
G1 X165.475 Y196.682 E0.0007
G1 X165.301 Y197.329 E0.0328
G1 X165.296 Y197.343 E0.0007
G1 X164.940 Y198.204 E0.0456
G1 X164.934 Y198.217 E0.0007
G1 X164.598 Y198.797 E0.0328
G1 X164.590 Y198.809 E0.0007
G1 X164.023 Y199.548 E0.0456
G1 X164.014 Y199.559 E0.0007
G1 X163.540 Y200.033 E0.0328
G1 X163.529 Y200.043 E0.0007
G1 X162.790 Y200.610 E0.0456
G1 X162.778 Y200.618 E0.0007
G1 X162.197 Y200.953 E0.0328
G1 X162.184 Y200.960 E0.0007
G1 X161.324 Y201.316 E0.0456
G1 X161.310 Y201.321 E0.0007
G1 X160.662 Y201.494 E0.0328
G1 X160.648 Y201.497 E0.0007
G1 X159.725 Y201.618 E0.0456
G1 X159.710 Y201.619 E0.0007
G1 X159.040 Y201.619 E0.0328
G1 X159.025 Y201.618 E0.0007
G1 X158.102 Y201.497 E0.0456
G1 X158.088 Y201.494 E0.0007
G1 X157.440 Y201.321 E0.0328
G1 X157.426 Y201.316 E0.0007
G1 X156.566 Y200.960 E0.0456
G1 X156.553 Y200.953 E0.0007
G1 X155.972 Y200.618 E0.0328
G1 X155.960 Y200.610 E0.0007
G1 X155.221 Y200.043 E0.0456
G1 X155.210 Y200.033 E0.0007
G1 X154.736 Y199.559 E0.0328
G1 X154.727 Y199.548 E0.0007
G1 X154.160 Y198.809 E0.0456
G1 X154.152 Y198.797 E0.0007
G1 X153.816 Y198.217 E0.0328
G1 X153.810 Y198.204 E0.0007
G1 X153.454 Y197.343 E0.0456
G1 X153.449 Y197.329 E0.0007
G1 X153.275 Y196.682 E0.0328
G1 X153.273 Y196.668 E0.0007
G1 X153.174 Y195.916 E0.0371
G1 X153.173 Y195.909 E0.0004
G1 X153.151 Y195.575 E0.0164
G1 X153.151 Y195.568 E0.0004
G1 X153.150 Y173.927 E1.0601
G1 X153.150 Y173.920 E0.0004
G1 X153.172 Y173.586 E0.0164
G1 X153.173 Y173.578 E0.0004
G1 X153.273 Y172.821 E0.0374
G1 X153.275 Y172.807 E0.0007
G1 X153.449 Y172.160 E0.0328
G1 X153.454 Y172.146 E0.0007
G1 X153.810 Y171.285 E0.0456
G1 X153.816 Y171.272 E0.0007
G1 X154.152 Y170.692 E0.0328
G1 X154.160 Y170.680 E0.0007
G1 X154.727 Y169.941 E0.0456
G1 X154.736 Y169.930 E0.0007
G1 X155.210 Y169.456 E0.0328
G1 E-4.2500 F24000
; outer perimeter
G1 X158.828 Y195.941 F21000
G1 E4.3000 F24000
G1 X158.705 Y195.781 E0.0099 F1440
G1 X158.628 Y195.595 E0.0099
G1 X158.601 Y195.385 E0.0103
G1 X158.600 Y174.109 E1.0422
G1 X158.628 Y173.894 E0.0106
G1 X158.705 Y173.708 E0.0099
G1 X158.828 Y173.548 E0.0099
G1 X158.988 Y173.425 E0.0099
G1 X159.175 Y173.348 E0.0099
G1 X159.384 Y173.320 E0.0103
G1 X194.850 Y173.319 E1.7373
G1 X194.850 Y158.831 E0.7098
G1 X195.608 Y158.831 E0.0371
G1 X195.825 Y158.859 E0.0107
G1 X196.012 Y158.936 E0.0099
G1 X196.172 Y159.059 E0.0099
G1 X196.294 Y159.219 E0.0099
G1 X196.372 Y159.405 E0.0099
G1 X196.399 Y159.615 E0.0103
G1 X196.400 Y174.080 E0.7086
G1 X196.372 Y174.295 E0.0106
G1 X196.294 Y174.481 E0.0099
G1 X196.172 Y174.641 E0.0099
G1 X196.012 Y174.764 E0.0099
G1 X195.825 Y174.841 E0.0099
G1 X195.616 Y174.869 E0.0103
G1 X160.150 Y174.869 E1.7373
G1 X160.149 Y195.385 E1.0050
G1 X160.122 Y195.595 E0.0103
G1 X160.044 Y195.781 E0.0099
G1 X159.922 Y195.941 E0.0099
G1 X159.762 Y196.064 E0.0099
G1 X159.575 Y196.141 E0.0099
G1 X159.375 Y196.168 E0.0099
G1 X159.175 Y196.141 E0.0099
G1 X158.988 Y196.064 E0.0099
G1 X158.828 Y195.941 E0.0099
; inner perimeter
G1 X159.149 Y195.620 F21000
G1 X159.099 Y195.554 E0.0041 F1920
G1 X159.067 Y195.477 E0.0041
G1 X159.051 Y195.356 E0.0060
G1 X159.050 Y174.139 E1.0393
G1 X159.067 Y174.012 E0.0063
G1 X159.099 Y173.935 E0.0041
G1 X159.149 Y173.869 E0.0041
G1 X159.215 Y173.818 E0.0041
G1 X159.292 Y173.786 E0.0041
G1 X159.413 Y173.770 E0.0060
G1 X195.300 Y173.769 E1.7579
G1 X195.300 Y159.281 E0.7098
G1 X195.578 Y159.281 E0.0136
G1 X195.708 Y159.297 E0.0064
G1 X195.785 Y159.329 E0.0041
G1 X195.851 Y159.380 E0.0041
G1 X195.901 Y159.446 E0.0041
G1 X195.933 Y159.523 E0.0041
G1 X195.949 Y159.644 E0.0060
G1 X195.950 Y174.050 E0.7057
G1 X195.933 Y174.177 E0.0063
G1 X195.901 Y174.254 E0.0041
G1 X195.851 Y174.320 E0.0041
G1 X195.785 Y174.371 E0.0041
G1 X195.708 Y174.403 E0.0041
G1 X195.587 Y174.419 E0.0060
G1 X159.700 Y174.419 E1.7579
G1 X159.699 Y195.356 E1.0256
G1 X159.683 Y195.477 E0.0060
G1 X159.651 Y195.554 E0.0041
G1 X159.601 Y195.620 E0.0041
G1 X159.535 Y195.671 E0.0041
G1 X159.458 Y195.703 E0.0041
G1 X159.375 Y195.714 E0.0041
G1 X159.292 Y195.703 E0.0041
G1 X159.215 Y195.671 E0.0041
G1 X159.149 Y195.620 E0.0041
; internal single extrusion
G1 X159.271 Y195.221 F21000
; tool H0.250 W0.225
G1 X159.368 Y195.401 E0.0050 F1440
G1 X159.372 Y195.404 E0.0001
G1 X159.378 Y195.404 E0.0001
G1 X159.382 Y195.401 E0.0001
G1 X159.385 Y195.397 E0.0001
G1 X159.375 Y195.335 E0.0015
G1 X159.375 Y195.251 E0.0020
G1 X159.375 Y174.280 E0.5137
G1 X159.375 Y174.190 E0.0022
G1 X159.379 Y174.152 E0.0009
G1 X159.394 Y174.113 E0.0010
G1 X159.433 Y174.099 E0.0010
G1 X159.471 Y174.095 E0.0009
G1 X159.560 Y174.095 E0.0022
G1 X195.482 Y174.094 E0.8798
G1 X195.565 Y174.091 E0.0020
G1 X195.628 Y174.104 E0.0016
G1 X195.632 Y174.101 E0.0001
G1 X195.635 Y174.097 E0.0001
G1 X195.623 Y174.029 E0.0017
G1 X195.625 Y173.945 E0.0020
G1 X195.625 Y159.749 E0.3477
G1 X195.625 Y159.665 E0.0020
G1 X195.634 Y159.603 E0.0015
G1 X195.632 Y159.598 E0.0001
G1 X195.631 Y159.595 E0.0001
G1 X195.629 Y159.594 E0.0001
G1 E-4.2500 F24000
; layer 2, Z = 0.500
M106 S145
; tool H0.250 W0.450
; outer perimeter
G1 X158.828 Y195.941 F21000
G1 Z0.500 F10000
G1 E4.3000 F24000
G1 X158.705 Y195.781 E0.0099 F3600
G1 X158.628 Y195.595 E0.0099
G1 X158.601 Y195.388 E0.0102
G1 X158.600 Y174.109 E1.0424
G1 X158.628 Y173.894 E0.0106
G1 X158.705 Y173.708 E0.0099
G1 X158.828 Y173.548 E0.0099
G1 X158.988 Y173.425 E0.0099
G1 X159.175 Y173.348 E0.0099
G1 X159.381 Y173.321 E0.0102
G1 X194.850 Y173.319 E1.7375
G1 X194.850 Y158.831 E0.7098
G1 X195.610 Y158.831 E0.0372
G1 X195.825 Y158.859 E0.0106
G1 X196.012 Y158.936 E0.0099
G1 X196.172 Y159.059 E0.0099
G1 X196.294 Y159.219 E0.0099
G1 X196.372 Y159.405 E0.0099
G1 X196.399 Y159.612 E0.0102
G1 X196.400 Y174.080 E0.7087
G1 X196.372 Y174.295 E0.0106
G1 X196.294 Y174.481 E0.0099
G1 X196.172 Y174.641 E0.0099
G1 X196.012 Y174.764 E0.0099
G1 X195.825 Y174.841 E0.0099
G1 X195.619 Y174.868 E0.0102
G1 X160.150 Y174.869 E1.7375
G1 X160.149 Y195.388 E1.0051
G1 X160.122 Y195.595 E0.0102
G1 X160.044 Y195.781 E0.0099
G1 X159.922 Y195.941 E0.0099
G1 X159.762 Y196.064 E0.0099
G1 X159.575 Y196.141 E0.0099
G1 X159.375 Y196.168 E0.0099
G1 X159.175 Y196.141 E0.0099
G1 X158.988 Y196.064 E0.0099
G1 X158.828 Y195.941 E0.0099
