; G-Code generated by Simplify3D(R) Version 4.0.1
; Feb 15, 2023 at 1:25:44 PM
; Settings Summary
;   processName,Process1
;   applyToModels,Caster
;   profileName,F410_0.4C_PLA (modified)
;   profileVersion,2022-03-09 09:51:28
;   baseProfile,F400_PLA
;   printMaterial,
;   printQuality,Standard
;   printExtruders,
;   extruderName,Primary Extruder
;   extruderToolheadNumber,0
;   extruderDiameter,0.4
;   extruderAutoWidth,0
;   extruderWidth,0.45
;   extrusionMultiplier,1
;   extruderUseRetract,1
;   extruderRetractionDistance,4.25
;   extruderExtraRestartDistance,0.05
;   extruderRetractionZLift,0
;   extruderRetractionSpeed,24000
;   extruderUseCoasting,0
;   extruderCoastingDistance,0.5
;   extruderUseWipe,0
;   extruderWipeDistance,5
;   primaryExtruder,0
;   layerHeight,0.25
;   topSolidLayers,4
;   bottomSolidLayers,4
;   perimeterOutlines,3
;   printPerimetersInsideOut,0
;   startPointOption,3
;   startPointOriginX,0
;   startPointOriginY,360
;   sequentialIslands,0
;   spiralVaseMode,0
;   firstLayerHeightPercentage,100
;   firstLayerWidthPercentage,100
;   firstLayerUnderspeed,0.4
;   useRaft,0
;   raftExtruder,0
;   raftTopLayers,2
;   raftBaseLayers,0
;   raftOffset,4
;   raftSeparationDistance,0.15
;   raftTopInfill,100
;   aboveRaftSpeedMultiplier,0.3
;   useSkirt,1
;   skirtExtruder,0
;   skirtLayers,1
;   skirtOutlines,1
;   skirtOffset,5
;   usePrimePillar,0
;   primePillarExtruder,999
;   primePillarWidth,12
;   primePillarLocation,7
;   primePillarSpeedMultiplier,1
;   useOozeShield,0
;   oozeShieldExtruder,999
;   oozeShieldOffset,2
;   oozeShieldOutlines,1
;   oozeShieldSidewallShape,1
;   oozeShieldSidewallAngle,30
;   oozeShieldSpeedMultiplier,1
;   infillExtruder,0
;   internalInfillPattern,Rectilinear
;   externalInfillPattern,Rectilinear
;   infillPercentage,26
;   outlineOverlapPercentage,20
;   infillExtrusionWidthPercentage,100
;   minInfillLength,5
;   infillLayerInterval,1
;   internalInfillAngles,45,-45
;   overlapInternalInfillAngles,0
;   externalInfillAngles,45,-45
;   generateSupport,0
;   supportExtruder,0
;   supportInfillPercentage,30
;   supportExtraInflation,0.5
;   supportBaseLayers,0
;   denseSupportExtruder,0
;   denseSupportLayers,0
;   denseSupportInfillPercentage,70
;   supportLayerInterval,1
;   supportHorizontalPartOffset,0.35
;   supportUpperSeparationLayers,1
;   supportLowerSeparationLayers,1
;   supportType,0
;   supportGridSpacing,2
;   maxOverhangAngle,45
;   supportAngles,45
;   temperatureName,Primary Extruder,Heated Bed
;   temperatureNumber,0,2
;   temperatureSetpointCount,1,1
;   temperatureSetpointLayers,1,1
;   temperatureSetpointTemperatures,230,45
;   temperatureStabilizeAtStartup,0,0
;   temperatureHeatedBed,0,1
;   temperatureRelayBetweenLayers,0,0
;   temperatureRelayBetweenLoops,0,0
;   fanLayers,1,3,4,5
;   fanSpeeds,0,25,50,100
;   blipFanToFullPower,0
;   adjustSpeedForCooling,1
;   minSpeedLayerTime,5
;   minCoolingSpeedSlowdown,30
;   increaseFanForCooling,1
;   minFanLayerTime,13
;   maxCoolingFanSpeed,100
;   increaseFanForBridging,1
;   bridgingFanSpeed,100
;   use5D,1
;   relativeEdistances,1
;   allowEaxisZeroing,1
;   independentExtruderAxes,0
;   includeM10123,0
;   stickySupport,1
;   applyToolheadOffsets,0
;   gcodeXoffset,0
;   gcodeYoffset,0
;   gcodeZoffset,0
;   overrideMachineDefinition,1
;   machineTypeOverride,0
;   strokeXoverride,355
;   strokeYoverride,355
;   strokeZoverride,315
;   originOffsetXoverride,0
;   originOffsetYoverride,0
;   originOffsetZoverride,0
;   homeXdirOverride,1
;   homeYdirOverride,-1
;   homeZdirOverride,1
;   flipXoverride,1
;   flipYoverride,-1
;   flipZoverride,1
;   toolheadOffsets,0,0|0,0|0,0|0,0|0,0|0,0
;   overrideFirmwareConfiguration,1
;   firmwareTypeOverride,RepRap (Marlin/Repetier/Sprinter)
;   GPXconfigOverride,r2
;   baudRateOverride,115200
;   overridePrinterModels,0
;   printerModelsOverride
;   startingGcode,M104 S0 ;cancel S3D set temp,G21  ; set units to mm,G90  ; use absolute coordinates,T0  ; select tool 0,G92 E0.0  ; reset e count,M220 S100 ; reset speed multiplier,M140 S[bed2_temperature]  ; set bed temp and do not wait,G32  ; probe bed,M190 S[bed2_temperature]  ; set bed temperature and wait,M109 S[extruder0_temperature]  ; set print head temperature and wait,; === pause for heating ===,; reset filament monitor,M42 P63 S0,G4 P100,G4 P50,M42 P63 S1,;,G1 Z10.0 F2000  ; move up,G1 E30.0 F500  ; prime extruder,G1 X20 Y15 F9000  ; move back,G1 Z0 F1000  ; move down to begin wipe,G1 X150 E4.0 F10000  ; wipe print head (extrude material while we do this),G92 E0.0  ; reset e count
;   layerChangeGcode,
;   retractionGcode,
;   toolChangeGcode,
;   endingGcode,G91  ;relative positioning,G1 E-5.00 F1000  ;retract 5mm of filament,G1 Z+1.00 X-20.0 Y+20.0 F10000  ;short quick move to disengage from print,G90  ;absolute positioning,G1 X0.0 Y350.0 F9000  ; move head to back left corner,G91  ; relative positioning,G1 E-5.00 F500  ;retract additional filament to prevent oozing,G90 ;absolute positioning,M104 S0  ;turn off hotend,M140 S0  ;turn off heatbed,; Reset filament monitor,M42 P63 S0,G4 P100,G4 P50,M42 P63 S1,;,G1 Z315 F1000 ;move print bed down to idle position,M106 S0  ; shut off blower,M84  ;motors off,M561  ;clear bed probe transformation
;   exportFileFormat,gcode
;   celebration,0
;   celebrationSong,Random Song
;   postProcessing,
;   defaultSpeed,6000
;   outlineUnderspeed,0.6
;   solidInfillUnderspeed,0.7
;   supportUnderspeed,1
;   rapidXYspeed,21000
;   rapidZspeed,10000
;   minBridgingArea,50
;   bridgingExtraInflation,0.5
;   bridgingExtrusionMultiplier,1
;   bridgingSpeedMultiplier,0.6
;   useFixedBridgingAngle,0
;   fixedBridgingAngle,0
;   applyBridgingToPerimeters,0
;   filamentDiameters,1.71|1.71|1.71|1.71|1.71|1.71
;   filamentPricesPerKg,46|46|46|46|46|46
;   filamentDensities,1.25|1.25|1.25|1.25|1.25|1.25
;   useMinPrintHeight,0
;   minPrintHeight,13
;   useMaxPrintHeight,0
;   maxPrintHeight,13
;   useDiaphragm,0
;   diaphragmLayerInterval,20
;   robustSlicing,1
;   mergeAllIntoSolid,0
;   onlyRetractWhenCrossingOutline,1
;   retractBetweenLayers,0
;   useRetractionMinTravel,0
;   retractionMinTravel,1
;   retractWhileWiping,0
;   onlyWipeOutlines,1
;   avoidCrossingOutline,0
;   maxMovementDetourFactor,3
;   toolChangeRetractionDistance,0
;   toolChangeExtraRestartDistance,0
;   toolChangeRetractionSpeed,360
;   externalThinWallType,1
;   internalThinWallType,1
;   thinWallAllowedOverlapPercentage,50
;   singleExtrusionMinLength,1
;   singleExtrusionMinPrintingWidthPercentage,50
;   singleExtrusionMaxPrintingWidthPercentage,200
;   singleExtrusionEndpointExtension,0.2
;   horizontalSizeCompensation,0
G90
M83
M106 S0
M104 S0 ;cancel S3D set temp
G21  ; set units to mm
G90  ; use absolute coordinates
T0  ; select tool 0
G92 E0.0  ; reset e count
M220 S100 ; reset speed multiplier
M140 S45  ; set bed temp and do not wait
G32  ; probe bed
M190 S45  ; set bed temperature and wait
M109 S230  ; set print head temperature and wait
; === pause for heating ===
; reset filament monitor
M42 P63 S0
G4 P100
G4 P50
M42 P63 S1
;
G1 Z10.0 F2000  ; move up
G1 E30.0 F500  ; prime extruder
G1 X20 Y15 F9000  ; move back
G1 Z0 F1000  ; move down to begin wipe
G1 X150 E4.0 F10000  ; wipe print head (extrude material while we do this)
G92 E0.0  ; reset e count
G1 E-4.2500 F24000
G1 Z0.250 F10000
; process Process1
; layer 1, Z = 0.250
T0
; tool H0.250 W0.450
; skirt
G1 X167.448 Y167.353 F21000
G1 E4.3000 F7200
G1 X168.097 Y166.750 E0.0434 F2400
G1 X168.100 Y166.747 E0.0002
G1 X168.242 Y166.624 E0.0092
G1 X168.246 Y166.622 E0.0002
G1 X168.932 Y166.072 E0.0431
G1 X168.936 Y166.069 E0.0003
G1 X169.126 Y165.931 E0.0115
G1 X169.130 Y165.928 E0.0003
G1 X170.181 Y165.235 E0.0616
G1 X170.186 Y165.232 E0.0003
G1 X170.430 Y165.090 E0.0138
G1 X170.436 Y165.087 E0.0003
G1 X171.556 Y164.514 E0.0617
G1 X171.561 Y164.512 E0.0003
G1 X171.775 Y164.414 E0.0115
G1 X171.780 Y164.412 E0.0003
G1 X172.618 Y164.077 E0.0442
G1 X172.623 Y164.075 E0.0003
G1 X172.845 Y163.998 E0.0115
G1 X172.850 Y163.997 E0.0003
G1 X174.056 Y163.639 E0.0616
G1 X174.062 Y163.637 E0.0003
G1 X174.337 Y163.572 E0.0138
G1 X174.343 Y163.571 E0.0003
G1 X175.582 Y163.348 E0.0617
G1 X175.587 Y163.347 E0.0003
G1 X175.820 Y163.316 E0.0115
G1 X175.826 Y163.316 E0.0003
G1 X176.701 Y163.240 E0.0430
G1 X176.705 Y163.240 E0.0002
G1 X176.893 Y163.231 E0.0092
G1 X176.897 Y163.231 E0.0002
G1 X177.752 Y163.220 E0.0419
G1 X177.756 Y163.220 E0.0002
G1 X177.944 Y163.225 E0.0092
G1 X177.949 Y163.225 E0.0002
G1 X178.826 Y163.279 E0.0430
G1 X178.831 Y163.279 E0.0003
G1 X179.065 Y163.304 E0.0115
G1 X179.070 Y163.305 E0.0003
G1 X180.290 Y163.494 E0.0605
G1 X180.296 Y163.495 E0.0003
G1 X180.526 Y163.541 E0.0115
G1 X180.531 Y163.542 E0.0003
G1 X181.406 Y163.762 E0.0442
G1 X181.411 Y163.763 E0.0003
G1 X181.637 Y163.831 E0.0115
G1 X181.642 Y163.832 E0.0003
G1 X182.829 Y164.249 E0.0617
G1 X182.835 Y164.251 E0.0003
G1 X183.096 Y164.359 E0.0138
G1 X183.102 Y164.362 E0.0003
G1 X184.236 Y164.907 E0.0616
G1 X184.241 Y164.909 E0.0003
G1 X184.448 Y165.021 E0.0115
G1 X184.452 Y165.023 E0.0003
G1 X185.226 Y165.487 E0.0442
G1 X185.230 Y165.490 E0.0003
G1 X185.427 Y165.620 E0.0115
G1 X185.431 Y165.623 E0.0003
G1 X186.427 Y166.353 E0.0605
G1 X186.431 Y166.356 E0.0003
G1 X186.615 Y166.503 E0.0115
G1 X186.619 Y166.507 E0.0003
G1 X187.294 Y167.104 E0.0442
G1 X187.298 Y167.108 E0.0003
G1 X187.467 Y167.272 E0.0115
G1 X187.471 Y167.275 E0.0003
G1 X188.333 Y168.192 E0.0617
G1 X188.337 Y168.197 E0.0003
G1 X188.519 Y168.413 E0.0138
G1 X188.523 Y168.418 E0.0003
G1 X189.293 Y169.443 E0.0628
G1 X189.297 Y169.448 E0.0003
G1 X189.454 Y169.683 E0.0138
G1 X189.457 Y169.688 E0.0003
G1 X190.097 Y170.772 E0.0617
G1 X190.100 Y170.776 E0.0003
G1 X190.210 Y170.984 E0.0115
G1 X190.212 Y170.989 E0.0003
G1 X190.598 Y171.804 E0.0442
G1 X190.600 Y171.809 E0.0003
G1 X190.691 Y172.026 E0.0115
G1 X190.693 Y172.031 E0.0003
G1 X191.116 Y173.191 E0.0605
G1 X191.118 Y173.196 E0.0003
G1 X191.188 Y173.421 E0.0115
G1 X191.190 Y173.426 E0.0003
G1 X191.419 Y174.298 E0.0442
G1 X191.421 Y174.303 E0.0003
G1 X191.470 Y174.533 E0.0115
G1 X191.471 Y174.538 E0.0003
G1 X191.676 Y175.767 E0.0610
G1 X191.677 Y175.772 E0.0003
G1 X191.707 Y176.027 E0.0125
G1 X191.707 Y176.032 E0.0003
G1 X191.783 Y177.188 E0.0567
G1 X191.783 Y177.194 E0.0003
G1 X191.787 Y177.463 E0.0132
G1 X191.787 Y177.469 E0.0003
G1 X191.743 Y178.555 E0.0532
G1 X191.743 Y178.559 E0.0002
G1 X191.726 Y178.770 E0.0104
G1 X191.725 Y178.775 E0.0002
G1 X191.606 Y179.745 E0.0479
G1 X191.605 Y179.751 E0.0003
G1 X191.560 Y180.008 E0.0128
G1 X191.559 Y180.014 E0.0003
G1 X191.252 Y181.352 E0.0672
G1 X191.251 Y181.357 E0.0003
G1 X191.180 Y181.609 E0.0128
G1 X191.178 Y181.614 E0.0003
G1 X190.856 Y182.563 E0.0491
G1 X190.854 Y182.569 E0.0003
G1 X190.757 Y182.812 E0.0128
G1 X190.755 Y182.817 E0.0003
G1 X190.173 Y184.088 E0.0685
G1 X190.170 Y184.094 E0.0003
G1 X190.022 Y184.371 E0.0154
G1 X190.018 Y184.377 E0.0003
G1 X189.285 Y185.568 E0.0685
G1 X189.281 Y185.573 E0.0003
G1 X189.133 Y185.788 E0.0128
G1 X189.130 Y185.793 E0.0003
G1 X188.536 Y186.567 E0.0478
G1 X188.533 Y186.571 E0.0002
G1 X188.399 Y186.731 E0.0102
G1 X188.396 Y186.735 E0.0002
G1 X187.758 Y187.439 E0.0465
G1 X187.754 Y187.442 E0.0002
G1 X187.608 Y187.591 E0.0102
G1 X187.605 Y187.594 E0.0002
G1 X186.911 Y188.244 E0.0465
G1 X186.908 Y188.247 E0.0002
G1 X186.749 Y188.383 E0.0102
G1 X186.746 Y188.386 E0.0002
G1 X186.002 Y188.977 E0.0465
G1 X185.998 Y188.980 E0.0002
G1 X185.829 Y189.103 E0.0102
G1 X185.825 Y189.105 E0.0002
G1 X185.014 Y189.648 E0.0478
G1 X185.009 Y189.651 E0.0003
G1 X184.784 Y189.785 E0.0128
G1 X184.779 Y189.788 E0.0003
G1 X183.566 Y190.429 E0.0672
G1 X183.561 Y190.432 E0.0003
G1 X183.324 Y190.542 E0.0128
G1 X183.319 Y190.545 E0.0003
G1 X182.439 Y190.901 E0.0465
G1 X182.435 Y190.902 E0.0002
G1 X182.288 Y190.957 E0.0077
G1 X182.285 Y190.958 E0.0002
G1 X181.760 Y191.133 E0.0271
G1 X181.756 Y191.135 E0.0002
G1 X181.555 Y191.193 E0.0102
G1 X181.550 Y191.194 E0.0002
G1 X180.243 Y191.516 E0.0659
G1 X180.237 Y191.517 E0.0003
G1 X179.981 Y191.567 E0.0128
G1 X179.975 Y191.568 E0.0003
G1 X178.982 Y191.707 E0.0491
G1 X178.977 Y191.707 E0.0003
G1 X178.716 Y191.730 E0.0128
G1 X178.711 Y191.731 E0.0003
G1 X177.339 Y191.781 E0.0672
G1 X177.333 Y191.781 E0.0003
G1 X177.072 Y191.777 E0.0128
G1 X177.066 Y191.777 E0.0003
G1 X176.092 Y191.713 E0.0478
G1 X176.088 Y191.713 E0.0002
G1 X175.880 Y191.691 E0.0102
G1 X175.875 Y191.690 E0.0002
G1 X174.935 Y191.551 E0.0465
G1 X174.931 Y191.550 E0.0002
G1 X174.725 Y191.511 E0.0102
G1 X174.721 Y191.510 E0.0002
G1 X173.770 Y191.288 E0.0478
G1 X173.765 Y191.287 E0.0003
G1 X173.514 Y191.215 E0.0128
G1 X173.508 Y191.213 E0.0003
G1 X172.211 Y190.767 E0.0672
G1 X172.205 Y190.764 E0.0003
G1 X171.963 Y190.667 E0.0128
G1 X171.957 Y190.665 E0.0003
G1 X171.071 Y190.254 E0.0478
G1 X171.067 Y190.252 E0.0002
G1 X170.881 Y190.157 E0.0102
G1 X170.877 Y190.155 E0.0002
G1 X170.051 Y189.686 E0.0465
G1 X170.047 Y189.684 E0.0002
G1 X169.869 Y189.574 E0.0102
G1 X169.865 Y189.571 E0.0002
G1 X169.080 Y189.037 E0.0465
G1 X169.076 Y189.034 E0.0002
G1 X168.908 Y188.910 E0.0102
G1 X168.904 Y188.907 E0.0002
G1 X168.165 Y188.310 E0.0465
G1 X168.162 Y188.307 E0.0002
G1 X168.004 Y188.169 E0.0102
G1 X168.001 Y188.166 E0.0002
G1 X167.294 Y187.493 E0.0478
G1 X167.290 Y187.489 E0.0003
G1 X167.110 Y187.299 E0.0128
G1 X167.106 Y187.295 E0.0003
G1 X166.214 Y186.252 E0.0672
G1 X166.210 Y186.248 E0.0003
G1 X166.051 Y186.041 E0.0128
G1 X166.047 Y186.036 E0.0003
G1 X165.477 Y185.212 E0.0491
G1 X165.474 Y185.207 E0.0003
G1 X165.336 Y184.985 E0.0128
G1 X165.333 Y184.980 E0.0003
G1 X164.672 Y183.778 E0.0672
G1 X164.669 Y183.773 E0.0003
G1 X164.555 Y183.537 E0.0128
G1 X164.552 Y183.532 E0.0003
G1 X164.161 Y182.609 E0.0491
G1 X164.159 Y182.604 E0.0003
G1 X164.070 Y182.358 E0.0128
G1 X164.068 Y182.353 E0.0003
G1 X163.664 Y181.041 E0.0672
G1 X163.663 Y181.036 E0.0003
G1 X163.598 Y180.782 E0.0128
G1 X163.597 Y180.777 E0.0003
G1 X163.407 Y179.819 E0.0478
G1 X163.406 Y179.815 E0.0002
G1 X163.374 Y179.608 E0.0102
G1 X163.373 Y179.604 E0.0002
G1 X163.264 Y178.660 E0.0465
G1 X163.264 Y178.655 E0.0002
G1 X163.249 Y178.447 E0.0102
G1 X163.248 Y178.442 E0.0002
G1 X163.216 Y177.467 E0.0478
G1 X163.216 Y177.461 E0.0003
G1 X163.221 Y177.199 E0.0128
G1 X163.221 Y177.194 E0.0003
G1 X163.317 Y175.825 E0.0672
G1 X163.317 Y175.819 E0.0003
G1 X163.349 Y175.559 E0.0128
G1 X163.350 Y175.554 E0.0003
G1 X163.512 Y174.618 E0.0465
G1 X163.513 Y174.614 E0.0002
G1 X163.544 Y174.461 E0.0077
G1 X163.545 Y174.457 E0.0002
G1 X163.673 Y173.919 E0.0271
G1 X163.674 Y173.914 E0.0002
G1 X163.731 Y173.713 E0.0102
G1 X163.732 Y173.709 E0.0002
G1 X164.149 Y172.429 E0.0659
G1 X164.151 Y172.423 E0.0003
G1 X164.245 Y172.179 E0.0128
G1 X164.247 Y172.174 E0.0003
G1 X164.653 Y171.257 E0.0491
G1 X164.655 Y171.252 E0.0003
G1 X164.773 Y171.019 E0.0128
G1 X164.776 Y171.014 E0.0003
G1 X165.457 Y169.823 E0.0672
G1 X165.460 Y169.818 E0.0003
G1 X165.602 Y169.598 E0.0128
G1 X165.605 Y169.593 E0.0003
G1 X166.189 Y168.778 E0.0491
G1 X166.192 Y168.774 E0.0003
G1 X166.355 Y168.569 E0.0128
G1 X166.359 Y168.565 E0.0003
G1 X167.265 Y167.540 E0.0670
G1 X167.268 Y167.536 E0.0003
G1 X167.444 Y167.357 E0.0123
G1 X167.448 Y167.353 E0.0003
G1 E-4.2500 F24000
; outer perimeter
G1 X171.153 Y183.643 F21000
G1 E4.3000 F24000
G1 X170.671 Y183.102 E0.0355 F1440
G1 X170.450 Y182.821 E0.0175
G1 X170.037 Y182.223 E0.0356
G1 X169.852 Y181.918 E0.0175
G1 X169.516 Y181.276 E0.0355
G1 X169.234 Y180.611 E0.0354
G1 X169.007 Y179.923 E0.0355
G1 X168.916 Y179.579 E0.0175
G1 X168.774 Y178.868 E0.0355
G1 X168.692 Y178.150 E0.0354
G1 X168.668 Y177.426 E0.0355
G1 X168.678 Y177.069 E0.0175
G1 X168.743 Y176.348 E0.0355
G1 X168.867 Y175.634 E0.0355
G1 X168.950 Y175.286 E0.0175
G1 X169.161 Y174.591 E0.0356
G1 X169.285 Y174.257 E0.0175
G1 X169.579 Y173.594 E0.0355
G1 X169.926 Y172.957 E0.0355
G1 X170.115 Y172.656 E0.0174
G1 X170.537 Y172.066 E0.0355
G1 X171.006 Y171.514 E0.0355
