; G-Code generated by Simplify3D(R) Version 4.0.1
; Mar 16, 2023 at 3:25:26 PM
; Settings Summary
;   processName,Process1
;   applyToModels,DriveBase
;   profileName,F410_0.4C_PLA (modified)
;   profileVersion,2022-03-09 09:51:28
;   baseProfile,F400_PLA
;   printMaterial,
;   printQuality,Standard
;   printExtruders,
;   extruderName,Primary Extruder
;   extruderToolheadNumber,0
;   extruderDiameter,0.4
;   extruderAutoWidth,0
;   extruderWidth,0.45
;   extrusionMultiplier,1
;   extruderUseRetract,1
;   extruderRetractionDistance,4.25
;   extruderExtraRestartDistance,0.05
;   extruderRetractionZLift,0
;   extruderRetractionSpeed,24000
;   extruderUseCoasting,0
;   extruderCoastingDistance,0.5
;   extruderUseWipe,0
;   extruderWipeDistance,5
;   primaryExtruder,0
;   layerHeight,0.25
;   topSolidLayers,4
;   bottomSolidLayers,4
;   perimeterOutlines,3
;   printPerimetersInsideOut,0
;   startPointOption,3
;   startPointOriginX,0
;   startPointOriginY,360
;   sequentialIslands,0
;   spiralVaseMode,0
;   firstLayerHeightPercentage,100
;   firstLayerWidthPercentage,100
;   firstLayerUnderspeed,0.4
;   useRaft,0
;   raftExtruder,0
;   raftTopLayers,2
;   raftBaseLayers,0
;   raftOffset,4
;   raftSeparationDistance,0.15
;   raftTopInfill,100
;   aboveRaftSpeedMultiplier,0.3
;   useSkirt,1
;   skirtExtruder,0
;   skirtLayers,1
;   skirtOutlines,1
;   skirtOffset,5
;   usePrimePillar,0
;   primePillarExtruder,999
;   primePillarWidth,12
;   primePillarLocation,7
;   primePillarSpeedMultiplier,1
;   useOozeShield,0
;   oozeShieldExtruder,999
;   oozeShieldOffset,2
;   oozeShieldOutlines,1
;   oozeShieldSidewallShape,1
;   oozeShieldSidewallAngle,30
;   oozeShieldSpeedMultiplier,1
;   infillExtruder,0
;   internalInfillPattern,Rectilinear
;   externalInfillPattern,Rectilinear
;   infillPercentage,25
;   outlineOverlapPercentage,20
;   infillExtrusionWidthPercentage,100
;   minInfillLength,5
;   infillLayerInterval,1
;   internalInfillAngles,45,-45
;   overlapInternalInfillAngles,0
;   externalInfillAngles,45,-45
;   generateSupport,1
;   supportExtruder,0
;   supportInfillPercentage,30
;   supportExtraInflation,0.5
;   supportBaseLayers,0
;   denseSupportExtruder,0
;   denseSupportLayers,0
;   denseSupportInfillPercentage,70
;   supportLayerInterval,1
;   supportHorizontalPartOffset,0.35
;   supportUpperSeparationLayers,1
;   supportLowerSeparationLayers,1
;   supportType,0
;   supportGridSpacing,2
;   maxOverhangAngle,45
;   supportAngles,45
;   temperatureName,Primary Extruder,Heated Bed
;   temperatureNumber,0,2
;   temperatureSetpointCount,1,1
;   temperatureSetpointLayers,1,1
;   temperatureSetpointTemperatures,230,45
;   temperatureStabilizeAtStartup,0,0
;   temperatureHeatedBed,0,1
;   temperatureRelayBetweenLayers,0,0
;   temperatureRelayBetweenLoops,0,0
;   fanLayers,1,3,4,5
;   fanSpeeds,0,25,50,100
;   blipFanToFullPower,0
;   adjustSpeedForCooling,1
;   minSpeedLayerTime,5
;   minCoolingSpeedSlowdown,30
;   increaseFanForCooling,1
;   minFanLayerTime,13
;   maxCoolingFanSpeed,100
;   increaseFanForBridging,1
;   bridgingFanSpeed,100
;   use5D,1
;   relativeEdistances,1
;   allowEaxisZeroing,1
;   independentExtruderAxes,0
;   includeM10123,0
;   stickySupport,1
;   applyToolheadOffsets,0
;   gcodeXoffset,0
;   gcodeYoffset,0
;   gcodeZoffset,0
;   overrideMachineDefinition,1
;   machineTypeOverride,0
;   strokeXoverride,355
;   strokeYoverride,355
;   strokeZoverride,315
;   originOffsetXoverride,0
;   originOffsetYoverride,0
;   originOffsetZoverride,0
;   homeXdirOverride,1
;   homeYdirOverride,-1
;   homeZdirOverride,1
;   flipXoverride,1
;   flipYoverride,-1
;   flipZoverride,1
;   toolheadOffsets,0,0|0,0|0,0|0,0|0,0|0,0
;   overrideFirmwareConfiguration,1
;   firmwareTypeOverride,RepRap (Marlin/Repetier/Sprinter)
;   GPXconfigOverride,r2
;   baudRateOverride,115200
;   overridePrinterModels,0
;   printerModelsOverride
;   startingGcode,M104 S0 ;cancel S3D set temp,G21  ; set units to mm,G90  ; use absolute coordinates,T0  ; select tool 0,G92 E0.0  ; reset e count,M220 S100 ; reset speed multiplier,M140 S[bed2_temperature]  ; set bed temp and do not wait,G32  ; probe bed,M190 S[bed2_temperature]  ; set bed temperature and wait,M109 S[extruder0_temperature]  ; set print head temperature and wait,; === pause for heating ===,; reset filament monitor,M42 P63 S0,G4 P100,G4 P50,M42 P63 S1,;,G1 Z10.0 F2000  ; move up,G1 E30.0 F500  ; prime extruder,G1 X20 Y15 F9000  ; move back,G1 Z0 F1000  ; move down to begin wipe,G1 X150 E4.0 F10000  ; wipe print head (extrude material while we do this),G92 E0.0  ; reset e count
;   layerChangeGcode,
;   retractionGcode,
;   toolChangeGcode,
;   endingGcode,G91  ;relative positioning,G1 E-5.00 F1000  ;retract 5mm of filament,G1 Z+1.00 X-20.0 Y+20.0 F10000  ;short quick move to disengage from print,G90  ;absolute positioning,G1 X0.0 Y350.0 F9000  ; move head to back left corner,G91  ; relative positioning,G1 E-5.00 F500  ;retract additional filament to prevent oozing,G90 ;absolute positioning,M104 S0  ;turn off hotend,M140 S0  ;turn off heatbed,; Reset filament monitor,M42 P63 S0,G4 P100,G4 P50,M42 P63 S1,;,G1 Z315 F1000 ;move print bed down to idle position,M106 S0  ; shut off blower,M84  ;motors off,M561  ;clear bed probe transformation
;   exportFileFormat,gcode
;   celebration,0
;   celebrationSong,Random Song
;   postProcessing,
;   defaultSpeed,6000
;   outlineUnderspeed,0.6
;   solidInfillUnderspeed,0.7
;   supportUnderspeed,1
;   rapidXYspeed,21000
;   rapidZspeed,10000
;   minBridgingArea,50
;   bridgingExtraInflation,0.5
;   bridgingExtrusionMultiplier,1
;   bridgingSpeedMultiplier,0.6
;   useFixedBridgingAngle,0
;   fixedBridgingAngle,0
;   applyBridgingToPerimeters,0
;   filamentDiameters,1.71|1.71|1.71|1.71|1.71|1.71
;   filamentPricesPerKg,46|46|46|46|46|46
;   filamentDensities,1.25|1.25|1.25|1.25|1.25|1.25
;   useMinPrintHeight,0
;   minPrintHeight,13
;   useMaxPrintHeight,0
;   maxPrintHeight,13
;   useDiaphragm,0
;   diaphragmLayerInterval,20
;   robustSlicing,1
;   mergeAllIntoSolid,0
;   onlyRetractWhenCrossingOutline,1
;   retractBetweenLayers,0
;   useRetractionMinTravel,0
;   retractionMinTravel,1
;   retractWhileWiping,0
;   onlyWipeOutlines,1
;   avoidCrossingOutline,0
;   maxMovementDetourFactor,3
;   toolChangeRetractionDistance,0
;   toolChangeExtraRestartDistance,0
;   toolChangeRetractionSpeed,360
;   externalThinWallType,1
;   internalThinWallType,1
;   thinWallAllowedOverlapPercentage,50
;   singleExtrusionMinLength,1
;   singleExtrusionMinPrintingWidthPercentage,50
;   singleExtrusionMaxPrintingWidthPercentage,200
;   singleExtrusionEndpointExtension,0.2
;   horizontalSizeCompensation,0
G90
M83
M106 S0
M104 S0 ;cancel S3D set temp
G21  ; set units to mm
G90  ; use absolute coordinates
T0  ; select tool 0
G92 E0.0  ; reset e count
M220 S100 ; reset speed multiplier
M140 S45  ; set bed temp and do not wait
G32  ; probe bed
M190 S45  ; set bed temperature and wait
M109 S230  ; set print head temperature and wait
; === pause for heating ===
; reset filament monitor
M42 P63 S0
G4 P100
G4 P50
M42 P63 S1
;
G1 Z10.0 F2000  ; move up
G1 E30.0 F500  ; prime extruder
G1 X20 Y15 F9000  ; move back
G1 Z0 F1000  ; move down to begin wipe
G1 X150 E4.0 F10000  ; wipe print head (extrude material while we do this)
G92 E0.0  ; reset e count
G1 E-4.2500 F24000
G1 Z0.250 F10000
; process Process1
; layer 1, Z = 0.250
T0
; tool H0.250 W0.450
; skirt
G1 X151.714 Y145.069 F21000
G1 E4.3000 F7200
G1 X152.069 Y144.714 E0.0246 F2400
G1 X152.077 Y144.706 E0.0005
G1 X152.768 Y144.139 E0.0438
G1 X152.777 Y144.132 E0.0005
G1 X153.195 Y143.853 E0.0246
G1 X153.204 Y143.847 E0.0005
G1 X153.993 Y143.426 E0.0438
G1 X154.003 Y143.421 E0.0005
G1 X154.467 Y143.229 E0.0246
G1 X154.478 Y143.225 E0.0005
G1 X155.334 Y142.965 E0.0438
G1 X155.344 Y142.963 E0.0005
G1 X155.837 Y142.865 E0.0246
G1 X155.848 Y142.863 E0.0005
G1 X156.613 Y142.788 E0.0377
G1 X156.618 Y142.787 E0.0003
G1 X156.869 Y142.775 E0.0123
G1 X156.875 Y142.775 E0.0003
G1 X198.126 Y142.775 E2.0207
G1 X198.131 Y142.775 E0.0003
G1 X198.382 Y142.787 E0.0123
G1 X198.387 Y142.788 E0.0003
G1 X199.152 Y142.863 E0.0377
G1 X199.163 Y142.865 E0.0005
G1 X199.656 Y142.963 E0.0246
G1 X199.666 Y142.965 E0.0005
G1 X200.522 Y143.225 E0.0438
G1 X200.533 Y143.229 E0.0005
G1 X200.997 Y143.421 E0.0246
G1 X201.007 Y143.426 E0.0005
G1 X201.796 Y143.847 E0.0438
G1 X201.805 Y143.853 E0.0005
G1 X202.223 Y144.132 E0.0246
G1 X202.232 Y144.139 E0.0005
G1 X202.923 Y144.706 E0.0438
G1 X202.931 Y144.714 E0.0005
G1 X203.286 Y145.069 E0.0246
G1 X203.294 Y145.077 E0.0005
G1 X203.861 Y145.768 E0.0438
G1 X203.868 Y145.777 E0.0005
G1 X204.147 Y146.195 E0.0246
G1 X204.153 Y146.204 E0.0005
G1 X204.574 Y146.993 E0.0438
G1 X204.579 Y147.003 E0.0005
G1 X204.771 Y147.467 E0.0246
G1 X204.775 Y147.478 E0.0005
G1 X205.034 Y148.333 E0.0438
G1 X205.037 Y148.344 E0.0005
G1 X205.135 Y148.837 E0.0246
G1 X205.137 Y148.848 E0.0005
G1 X205.212 Y149.613 E0.0377
G1 X205.213 Y149.618 E0.0003
G1 X205.225 Y149.869 E0.0123
G1 X205.225 Y149.875 E0.0003
G1 X205.225 Y188.126 E1.8738
G1 X205.225 Y188.131 E0.0003
G1 X205.213 Y188.382 E0.0123
G1 X205.212 Y188.387 E0.0003
G1 X205.137 Y189.152 E0.0377
G1 X205.135 Y189.163 E0.0005
G1 X205.037 Y189.656 E0.0246
G1 X205.034 Y189.667 E0.0005
G1 X204.775 Y190.522 E0.0438
G1 X204.771 Y190.533 E0.0005
G1 X204.579 Y190.997 E0.0246
G1 X204.574 Y191.007 E0.0005
G1 X204.153 Y191.796 E0.0438
G1 X204.147 Y191.805 E0.0005
G1 X203.868 Y192.223 E0.0246
G1 X203.861 Y192.232 E0.0005
G1 X203.294 Y192.923 E0.0438
G1 X203.286 Y192.931 E0.0005
G1 X202.931 Y193.286 E0.0246
G1 X202.923 Y193.294 E0.0005
G1 X202.232 Y193.861 E0.0438
G1 X202.223 Y193.868 E0.0005
G1 X201.805 Y194.147 E0.0246
G1 X201.796 Y194.153 E0.0005
G1 X201.007 Y194.574 E0.0438
G1 X200.997 Y194.579 E0.0005
G1 X200.533 Y194.771 E0.0246
G1 X200.522 Y194.775 E0.0005
G1 X199.667 Y195.034 E0.0438
G1 X199.656 Y195.037 E0.0005
G1 X199.163 Y195.135 E0.0246
G1 X199.152 Y195.137 E0.0005
G1 X198.387 Y195.212 E0.0377
G1 X198.382 Y195.213 E0.0003
G1 X198.131 Y195.225 E0.0123
G1 X198.126 Y195.225 E0.0003
G1 X189.725 Y195.225 E0.4115
G1 X189.725 Y205.126 E0.4850
G1 X189.725 Y205.131 E0.0003
G1 X189.713 Y205.382 E0.0123
G1 X189.712 Y205.387 E0.0003
G1 X189.637 Y206.152 E0.0377
G1 X189.635 Y206.163 E0.0005
G1 X189.537 Y206.656 E0.0246
G1 X189.534 Y206.667 E0.0005
G1 X189.275 Y207.522 E0.0438
G1 X189.271 Y207.533 E0.0005
G1 X189.079 Y207.997 E0.0246
G1 X189.074 Y208.007 E0.0005
G1 X188.653 Y208.796 E0.0438
G1 X188.647 Y208.805 E0.0005
G1 X188.368 Y209.223 E0.0246
G1 X188.361 Y209.232 E0.0005
G1 X187.794 Y209.923 E0.0438
G1 X187.786 Y209.931 E0.0005
G1 X187.431 Y210.286 E0.0246
G1 X187.423 Y210.294 E0.0005
G1 X186.732 Y210.861 E0.0438
G1 X186.723 Y210.868 E0.0005
G1 X186.305 Y211.147 E0.0246
G1 X186.296 Y211.153 E0.0005
G1 X185.507 Y211.574 E0.0438
G1 X185.497 Y211.579 E0.0005
G1 X185.033 Y211.771 E0.0246
G1 X185.022 Y211.775 E0.0005
G1 X184.167 Y212.034 E0.0438
G1 X184.156 Y212.037 E0.0005
G1 X183.663 Y212.135 E0.0246
G1 X183.652 Y212.137 E0.0005
G1 X182.887 Y212.212 E0.0377
G1 X182.882 Y212.213 E0.0003
G1 X182.631 Y212.225 E0.0123
G1 X182.626 Y212.225 E0.0003
G1 X172.375 Y212.225 E0.5022
G1 X172.369 Y212.225 E0.0003
G1 X172.118 Y212.213 E0.0123
G1 X172.113 Y212.212 E0.0003
G1 X171.348 Y212.137 E0.0377
G1 X171.337 Y212.135 E0.0005
G1 X170.844 Y212.037 E0.0246
G1 X170.833 Y212.034 E0.0005
G1 X169.978 Y211.775 E0.0438
G1 X169.967 Y211.771 E0.0005
G1 X169.503 Y211.579 E0.0246
G1 X169.493 Y211.574 E0.0005
G1 X168.704 Y211.153 E0.0438
G1 X168.695 Y211.147 E0.0005
G1 X168.277 Y210.868 E0.0246
G1 X168.268 Y210.861 E0.0005
G1 X167.577 Y210.294 E0.0438
G1 X167.569 Y210.286 E0.0005
G1 X167.214 Y209.931 E0.0246
G1 X167.206 Y209.923 E0.0005
G1 X166.639 Y209.232 E0.0438
G1 X166.632 Y209.223 E0.0005
G1 X166.353 Y208.805 E0.0246
G1 X166.347 Y208.796 E0.0005
G1 X165.926 Y208.007 E0.0438
G1 X165.921 Y207.997 E0.0005
G1 X165.729 Y207.533 E0.0246
G1 X165.725 Y207.522 E0.0005
G1 X165.465 Y206.667 E0.0438
G1 X165.463 Y206.656 E0.0005
G1 X165.365 Y206.163 E0.0246
G1 X165.363 Y206.152 E0.0005
G1 X165.288 Y205.387 E0.0377
G1 X165.287 Y205.382 E0.0003
G1 X165.275 Y205.131 E0.0123
G1 X165.275 Y205.125 E0.0003
G1 X165.275 Y195.225 E0.4850
G1 X156.875 Y195.225 E0.4115
G1 X156.869 Y195.225 E0.0003
G1 X156.618 Y195.213 E0.0123
G1 X156.613 Y195.212 E0.0003
G1 X155.848 Y195.137 E0.0377
G1 X155.837 Y195.135 E0.0005
G1 X155.344 Y195.037 E0.0246
G1 X155.333 Y195.034 E0.0005
G1 X154.478 Y194.775 E0.0438
G1 X154.467 Y194.771 E0.0005
G1 X154.003 Y194.579 E0.0246
G1 X153.993 Y194.574 E0.0005
G1 X153.204 Y194.153 E0.0438
G1 X153.195 Y194.147 E0.0005
G1 X152.777 Y193.868 E0.0246
G1 X152.768 Y193.861 E0.0005
G1 X152.077 Y193.294 E0.0438
G1 X152.069 Y193.286 E0.0005
G1 X151.714 Y192.931 E0.0246
G1 X151.706 Y192.923 E0.0005
G1 X151.139 Y192.232 E0.0438
G1 X151.132 Y192.223 E0.0005
G1 X150.853 Y191.805 E0.0246
G1 X150.847 Y191.796 E0.0005
G1 X150.426 Y191.007 E0.0438
G1 X150.421 Y190.997 E0.0005
G1 X150.229 Y190.533 E0.0246
G1 X150.225 Y190.522 E0.0005
G1 X149.965 Y189.667 E0.0438
G1 X149.963 Y189.656 E0.0005
G1 X149.865 Y189.163 E0.0246
G1 X149.863 Y189.152 E0.0005
G1 X149.788 Y188.387 E0.0377
G1 X149.787 Y188.382 E0.0003
G1 X149.775 Y188.131 E0.0123
G1 X149.775 Y188.125 E0.0003
G1 X149.775 Y149.875 E1.8738
G1 X149.775 Y149.869 E0.0003
G1 X149.787 Y149.618 E0.0123
G1 X149.788 Y149.613 E0.0003
G1 X149.863 Y148.848 E0.0377
G1 X149.865 Y148.837 E0.0005
G1 X149.963 Y148.344 E0.0246
G1 X149.965 Y148.333 E0.0005
G1 X150.225 Y147.478 E0.0438
G1 X150.229 Y147.467 E0.0005
G1 X150.421 Y147.003 E0.0246
G1 X150.426 Y146.993 E0.0005
G1 X150.847 Y146.204 E0.0438
G1 X150.853 Y146.195 E0.0005
G1 X151.132 Y145.777 E0.0246
G1 X151.139 Y145.768 E0.0005
G1 X151.706 Y145.077 E0.0438
G1 X151.714 Y145.069 E0.0005
G1 E-4.2500 F24000
; outer perimeter
G1 X171.246 Y206.254 F21000
G1 E4.3000 F24000
G1 X171.025 Y205.986 E0.0170 F1440
G1 X170.861 Y205.679 E0.0170
G1 X170.760 Y205.346 E0.0170
G1 X170.725 Y204.989 E0.0176
G1 X170.725 Y194.993 E0.4897
G1 X170.681 Y194.318 E0.0331
G1 X170.547 Y193.648 E0.0335
G1 X170.328 Y193.000 E0.0335
G1 X170.025 Y192.387 E0.0335
G1 X169.646 Y191.819 E0.0335
G1 X169.195 Y191.305 E0.0335
G1 X168.681 Y190.854 E0.0335
G1 X168.113 Y190.475 E0.0335
G1 X167.500 Y190.172 E0.0335
G1 X166.852 Y189.953 E0.0335
G1 X166.182 Y189.819 E0.0335
G1 X165.507 Y189.775 E0.0331
G1 X157.011 Y189.775 E0.4162
G1 X156.654 Y189.740 E0.0176
G1 X156.321 Y189.639 E0.0170
G1 X156.014 Y189.475 E0.0170
G1 X155.746 Y189.254 E0.0170
G1 X155.525 Y188.986 E0.0170
G1 X155.361 Y188.679 E0.0170
G1 X155.260 Y188.346 E0.0170
G1 X155.225 Y187.989 E0.0176
G1 X155.225 Y150.011 E1.8604
G1 X155.260 Y149.654 E0.0176
G1 X155.361 Y149.321 E0.0170
G1 X155.525 Y149.014 E0.0170
G1 X155.746 Y148.746 E0.0170
G1 X156.014 Y148.525 E0.0170
G1 X156.321 Y148.361 E0.0170
G1 X156.654 Y148.260 E0.0170
G1 X157.011 Y148.225 E0.0176
G1 X197.989 Y148.225 E2.0073
G1 X198.346 Y148.260 E0.0176
G1 X198.679 Y148.361 E0.0170
G1 X198.986 Y148.525 E0.0170
G1 X199.254 Y148.746 E0.0170
G1 X199.475 Y149.014 E0.0170
G1 X199.639 Y149.321 E0.0170
G1 X199.740 Y149.654 E0.0170
G1 X199.775 Y150.011 E0.0176
G1 X199.775 Y187.989 E1.8604
G1 X199.740 Y188.346 E0.0176
G1 X199.639 Y188.679 E0.0170
G1 X199.475 Y188.986 E0.0170
G1 X199.254 Y189.254 E0.0170
G1 X198.986 Y189.475 E0.0170
G1 X198.679 Y189.639 E0.0170
G1 X198.346 Y189.740 E0.0170
G1 X197.989 Y189.775 E0.0176
G1 X189.493 Y189.775 E0.4162
G1 X188.818 Y189.819 E0.0331
G1 X188.148 Y189.953 E0.0335
G1 X187.500 Y190.172 E0.0335
G1 X186.887 Y190.475 E0.0335
G1 X186.319 Y190.854 E0.0335
G1 X185.805 Y191.305 E0.0335
G1 X185.354 Y191.819 E0.0335
G1 X184.975 Y192.387 E0.0335
G1 X184.672 Y193.000 E0.0335
G1 X184.453 Y193.648 E0.0335
G1 X184.319 Y194.318 E0.0335
G1 X184.275 Y194.993 E0.0331
G1 X184.275 Y204.989 E0.4897
G1 X184.240 Y205.346 E0.0176
G1 X184.139 Y205.679 E0.0170
G1 X183.975 Y205.986 E0.0170
G1 X183.754 Y206.254 E0.0170
G1 X183.486 Y206.475 E0.0170
