; G-Code generated by Simplify3D(R) Version 4.0.1
; Feb 13, 2023 at 1:56:54 PM
; Settings Summary
;   processName,Process1
;   applyToModels,PLA_Test
;   profileName,F410_0.4C_PLA (modified)
;   profileVersion,2022-03-09 09:51:28
;   baseProfile,F400_PLA
;   printMaterial,
;   printQuality,Standard
;   printExtruders,
;   extruderName,Primary Extruder
;   extruderToolheadNumber,0
;   extruderDiameter,0.4
;   extruderAutoWidth,0
;   extruderWidth,0.45
;   extrusionMultiplier,1
;   extruderUseRetract,1
;   extruderRetractionDistance,4.25
;   extruderExtraRestartDistance,0.05
;   extruderRetractionZLift,0
;   extruderRetractionSpeed,24000
;   extruderUseCoasting,0
;   extruderCoastingDistance,0.5
;   extruderUseWipe,0
;   extruderWipeDistance,5
;   primaryExtruder,0
;   layerHeight,0.25
;   topSolidLayers,4
;   bottomSolidLayers,4
;   perimeterOutlines,3
;   printPerimetersInsideOut,0
;   startPointOption,3
;   startPointOriginX,0
;   startPointOriginY,360
;   sequentialIslands,0
;   spiralVaseMode,0
;   firstLayerHeightPercentage,100
;   firstLayerWidthPercentage,100
;   firstLayerUnderspeed,0.4
;   useRaft,0
;   raftExtruder,0
;   raftTopLayers,2
;   raftBaseLayers,0
;   raftOffset,4
;   raftSeparationDistance,0.15
;   raftTopInfill,100
;   aboveRaftSpeedMultiplier,0.3
;   useSkirt,1
;   skirtExtruder,0
;   skirtLayers,1
;   skirtOutlines,1
;   skirtOffset,5
;   usePrimePillar,0
;   primePillarExtruder,999
;   primePillarWidth,12
;   primePillarLocation,7
;   primePillarSpeedMultiplier,1
;   useOozeShield,0
;   oozeShieldExtruder,999
;   oozeShieldOffset,2
;   oozeShieldOutlines,1
;   oozeShieldSidewallShape,1
;   oozeShieldSidewallAngle,30
;   oozeShieldSpeedMultiplier,1
;   infillExtruder,0
;   internalInfillPattern,Rectilinear
;   externalInfillPattern,Rectilinear
;   infillPercentage,26
;   outlineOverlapPercentage,20
;   infillExtrusionWidthPercentage,100
;   minInfillLength,5
;   infillLayerInterval,1
;   internalInfillAngles,45,-45
;   overlapInternalInfillAngles,0
;   externalInfillAngles,45,-45
;   generateSupport,1
;   supportExtruder,0
;   supportInfillPercentage,30
;   supportExtraInflation,0.5
;   supportBaseLayers,0
;   denseSupportExtruder,0
;   denseSupportLayers,0
;   denseSupportInfillPercentage,70
;   supportLayerInterval,1
;   supportHorizontalPartOffset,0.35
;   supportUpperSeparationLayers,1
;   supportLowerSeparationLayers,1
;   supportType,0
;   supportGridSpacing,2
;   maxOverhangAngle,45
;   supportAngles,45
;   temperatureName,Primary Extruder,Heated Bed
;   temperatureNumber,0,2
;   temperatureSetpointCount,1,1
;   temperatureSetpointLayers,1,1
;   temperatureSetpointTemperatures,230,45
;   temperatureStabilizeAtStartup,0,0
;   temperatureHeatedBed,0,1
;   temperatureRelayBetweenLayers,0,0
;   temperatureRelayBetweenLoops,0,0
;   fanLayers,1,3,4,5
;   fanSpeeds,0,25,50,100
;   blipFanToFullPower,0
;   adjustSpeedForCooling,1
;   minSpeedLayerTime,5
;   minCoolingSpeedSlowdown,30
;   increaseFanForCooling,1
;   minFanLayerTime,13
;   maxCoolingFanSpeed,100
;   increaseFanForBridging,1
;   bridgingFanSpeed,100
;   use5D,1
;   relativeEdistances,1
;   allowEaxisZeroing,1
;   independentExtruderAxes,0
;   includeM10123,0
;   stickySupport,1
;   applyToolheadOffsets,0
;   gcodeXoffset,0
;   gcodeYoffset,0
;   gcodeZoffset,0
;   overrideMachineDefinition,1
;   machineTypeOverride,0
;   strokeXoverride,355
;   strokeYoverride,355
;   strokeZoverride,315
;   originOffsetXoverride,0
;   originOffsetYoverride,0
;   originOffsetZoverride,0
;   homeXdirOverride,1
;   homeYdirOverride,-1
;   homeZdirOverride,1
;   flipXoverride,1
;   flipYoverride,-1
;   flipZoverride,1
;   toolheadOffsets,0,0|0,0|0,0|0,0|0,0|0,0
;   overrideFirmwareConfiguration,1
;   firmwareTypeOverride,RepRap (Marlin/Repetier/Sprinter)
;   GPXconfigOverride,r2
;   baudRateOverride,115200
;   overridePrinterModels,0
;   printerModelsOverride
;   startingGcode,M104 S0 ;cancel S3D set temp,G21  ; set units to mm,G90  ; use absolute coordinates,T0  ; select tool 0,G92 E0.0  ; reset e count,M220 S100 ; reset speed multiplier,M140 S[bed2_temperature]  ; set bed temp and do not wait,G32  ; probe bed,M190 S[bed2_temperature]  ; set bed temperature and wait,M109 S[extruder0_temperature]  ; set print head temperature and wait,; === pause for heating ===,; reset filament monitor,M42 P63 S0,G4 P100,G4 P50,M42 P63 S1,;,G1 Z10.0 F2000  ; move up,G1 E30.0 F500  ; prime extruder,G1 X20 Y15 F9000  ; move back,G1 Z0 F1000  ; move down to begin wipe,G1 X150 E4.0 F10000  ; wipe print head (extrude material while we do this),G92 E0.0  ; reset e count
;   layerChangeGcode,
;   retractionGcode,
;   toolChangeGcode,
;   endingGcode,G91  ;relative positioning,G1 E-5.00 F1000  ;retract 5mm of filament,G1 Z+1.00 X-20.0 Y+20.0 F10000  ;short quick move to disengage from print,G90  ;absolute positioning,G1 X0.0 Y350.0 F9000  ; move head to back left corner,G91  ; relative positioning,G1 E-5.00 F500  ;retract additional filament to prevent oozing,G90 ;absolute positioning,M104 S0  ;turn off hotend,M140 S0  ;turn off heatbed,; Reset filament monitor,M42 P63 S0,G4 P100,G4 P50,M42 P63 S1,;,G1 Z315 F1000 ;move print bed down to idle position,M106 S0  ; shut off blower,M84  ;motors off,M561  ;clear bed probe transformation
;   exportFileFormat,gcode
;   celebration,0
;   celebrationSong,Random Song
;   postProcessing,
;   defaultSpeed,6000
;   outlineUnderspeed,0.6
;   solidInfillUnderspeed,0.7
;   supportUnderspeed,1
;   rapidXYspeed,21000
;   rapidZspeed,10000
;   minBridgingArea,50
;   bridgingExtraInflation,0.5
;   bridgingExtrusionMultiplier,1
;   bridgingSpeedMultiplier,0.6
;   useFixedBridgingAngle,0
;   fixedBridgingAngle,0
;   applyBridgingToPerimeters,0
;   filamentDiameters,1.71|1.71|1.71|1.71|1.71|1.71
;   filamentPricesPerKg,46|46|46|46|46|46
;   filamentDensities,1.25|1.25|1.25|1.25|1.25|1.25
;   useMinPrintHeight,0
;   minPrintHeight,13
;   useMaxPrintHeight,0
;   maxPrintHeight,13
;   useDiaphragm,0
;   diaphragmLayerInterval,20
;   robustSlicing,1
;   mergeAllIntoSolid,0
;   onlyRetractWhenCrossingOutline,1
;   retractBetweenLayers,0
;   useRetractionMinTravel,0
;   retractionMinTravel,1
;   retractWhileWiping,0
;   onlyWipeOutlines,1
;   avoidCrossingOutline,0
;   maxMovementDetourFactor,3
;   toolChangeRetractionDistance,0
;   toolChangeExtraRestartDistance,0
;   toolChangeRetractionSpeed,360
;   externalThinWallType,1
;   internalThinWallType,1
;   thinWallAllowedOverlapPercentage,50
;   singleExtrusionMinLength,1
;   singleExtrusionMinPrintingWidthPercentage,50
;   singleExtrusionMaxPrintingWidthPercentage,200
;   singleExtrusionEndpointExtension,0.2
;   horizontalSizeCompensation,0
G90
M83
M106 S0
M104 S0 ;cancel S3D set temp
G21  ; set units to mm
G90  ; use absolute coordinates
T0  ; select tool 0
G92 E0.0  ; reset e count
M220 S100 ; reset speed multiplier
M140 S45  ; set bed temp and do not wait
G32  ; probe bed
M190 S45  ; set bed temperature and wait
M109 S230  ; set print head temperature and wait
; === pause for heating ===
; reset filament monitor
M42 P63 S0
G4 P100
G4 P50
M42 P63 S1
;
G1 Z10.0 F2000  ; move up
G1 E30.0 F500  ; prime extruder
G1 X20 Y15 F9000  ; move back
G1 Z0 F1000  ; move down to begin wipe
G1 X150 E4.0 F10000  ; wipe print head (extrude material while we do this)
G92 E0.0  ; reset e count
G1 E-4.2500 F24000
G1 Z0.250 F10000
; process Process1
; layer 1, Z = 0.250
T0
; tool H0.250 W0.450
; skirt
G1 X162.309 Y165.301 F21000
G1 E4.3000 F7200
G1 X165.301 Y162.309 E0.2073 F2400
G1 X165.384 Y162.275 E0.0044
G1 X189.616 Y162.275 E1.1870
G1 X189.699 Y162.309 E0.0044
G1 X192.691 Y165.301 E0.2073
G1 X192.725 Y165.384 E0.0044
G1 X192.725 Y189.616 E1.1870
G1 X192.691 Y189.699 E0.0044
G1 X189.699 Y192.691 E0.2073
G1 X189.616 Y192.725 E0.0044
G1 X165.384 Y192.725 E1.1870
G1 X165.301 Y192.691 E0.0044
G1 X162.309 Y189.699 E0.2073
G1 X162.275 Y189.616 E0.0044
G1 X162.275 Y165.384 E1.1870
G1 X162.309 Y165.301 E0.0044
G1 E-4.2500 F24000
; outer perimeter
G1 X167.725 Y187.275 F21000
G1 E4.3000 F24000
G1 X167.725 Y167.725 E0.9577 F1440
G1 X187.275 Y167.725 E0.9577
G1 X187.275 Y187.275 E0.9577
G1 X167.725 Y187.275 E0.9577
; inner perimeter
G1 X168.175 Y186.825 F21000
G1 X168.175 Y168.175 E0.9136 F1920
G1 X186.825 Y168.175 E0.9136
G1 X186.825 Y186.825 E0.9136
G1 X168.175 Y186.825 E0.9136
G1 X168.625 Y186.375 F21000
G1 X168.625 Y168.625 E0.8695 F1920
G1 X186.375 Y168.625 E0.8695
G1 X186.375 Y186.375 E0.8695
G1 X168.625 Y186.375 E0.8695
; solid layer
G1 X169.469 Y186.015 F21000
G1 X168.985 Y185.531 E0.0335 F1680
G1 X168.985 Y184.895 E0.0312
G1 X170.105 Y186.015 E0.0776
G1 X170.741 Y186.015 E0.0312
G1 X168.985 Y184.259 E0.1217
G1 X168.985 Y183.622 E0.0312
G1 X171.378 Y186.015 E0.1658
G1 X172.014 Y186.015 E0.0312
G1 X168.985 Y182.986 E0.2099
G1 X168.985 Y182.349 E0.0312
G1 X172.651 Y186.015 E0.2539
G1 X173.287 Y186.015 E0.0312
G1 X168.985 Y181.713 E0.2980
G1 X168.985 Y181.077 E0.0312
G1 X173.923 Y186.015 E0.3421
G1 X174.560 Y186.015 E0.0312
G1 X168.985 Y180.440 E0.3862
G1 X168.985 Y179.804 E0.0312
G1 X175.196 Y186.015 E0.4303
G1 X175.833 Y186.015 E0.0312
G1 X168.985 Y179.167 E0.4744
G1 X168.985 Y178.531 E0.0312
G1 X176.469 Y186.015 E0.5185
G1 X177.105 Y186.015 E0.0312
G1 X168.985 Y177.895 E0.5626
G1 X168.985 Y177.258 E0.0312
G1 X177.742 Y186.015 E0.6066
G1 X178.378 Y186.015 E0.0312
G1 X168.985 Y176.622 E0.6507
G1 X168.985 Y175.985 E0.0312
G1 X179.015 Y186.015 E0.6948
G1 X179.651 Y186.015 E0.0312
G1 X168.985 Y175.349 E0.7389
G1 X168.985 Y174.713 E0.0312
G1 X180.287 Y186.015 E0.7830
G1 X180.924 Y186.015 E0.0312
G1 X168.985 Y174.076 E0.8271
G1 X168.985 Y173.440 E0.0312
G1 X181.560 Y186.015 E0.8712
G1 X182.197 Y186.015 E0.0312
G1 X168.985 Y172.803 E0.9153
G1 X168.985 Y172.167 E0.0312
G1 X182.833 Y186.015 E0.9593
G1 X183.469 Y186.015 E0.0312
G1 X168.985 Y171.531 E1.0034
G1 X168.985 Y170.894 E0.0312
G1 X184.106 Y186.015 E1.0475
G1 X184.742 Y186.015 E0.0312
G1 X168.985 Y170.258 E1.0916
G1 X168.985 Y169.621 E0.0312
G1 X185.379 Y186.015 E1.1357
G1 X186.015 Y186.015 E0.0312
G1 X168.985 Y168.985 E1.1798
G1 X169.621 Y168.985 E0.0312
G1 X186.015 Y185.379 E1.1357
G1 X186.015 Y184.742 E0.0312
G1 X170.258 Y168.985 E1.0916
G1 X170.894 Y168.985 E0.0312
G1 X186.015 Y184.106 E1.0475
G1 X186.015 Y183.469 E0.0312
G1 X171.531 Y168.985 E1.0034
G1 X172.167 Y168.985 E0.0312
G1 X186.015 Y182.833 E0.9593
G1 X186.015 Y182.197 E0.0312
G1 X172.803 Y168.985 E0.9153
G1 X173.440 Y168.985 E0.0312
G1 X186.015 Y181.560 E0.8712
G1 X186.015 Y180.924 E0.0312
G1 X174.076 Y168.985 E0.8271
G1 X174.713 Y168.985 E0.0312
G1 X186.015 Y180.287 E0.7830
G1 X186.015 Y179.651 E0.0312
G1 X175.349 Y168.985 E0.7389
G1 X175.985 Y168.985 E0.0312
G1 X186.015 Y179.015 E0.6948
G1 X186.015 Y178.378 E0.0312
G1 X176.622 Y168.985 E0.6507
G1 X177.258 Y168.985 E0.0312
G1 X186.015 Y177.742 E0.6066
G1 X186.015 Y177.105 E0.0312
G1 X177.895 Y168.985 E0.5626
G1 X178.531 Y168.985 E0.0312
G1 X186.015 Y176.469 E0.5185
G1 X186.015 Y175.833 E0.0312
G1 X179.167 Y168.985 E0.4744
G1 X179.804 Y168.985 E0.0312
G1 X186.015 Y175.196 E0.4303
G1 X186.015 Y174.560 E0.0312
G1 X180.440 Y168.985 E0.3862
G1 X181.077 Y168.985 E0.0312
G1 X186.015 Y173.923 E0.3421
G1 X186.015 Y173.287 E0.0312
G1 X181.713 Y168.985 E0.2980
G1 X182.349 Y168.985 E0.0312
G1 X186.015 Y172.651 E0.2539
G1 X186.015 Y172.014 E0.0312
G1 X182.986 Y168.985 E0.2099
G1 X183.622 Y168.985 E0.0312
G1 X186.015 Y171.378 E0.1658
G1 X186.015 Y170.741 E0.0312
G1 X184.259 Y168.985 E0.1217
G1 X184.895 Y168.985 E0.0312
G1 X186.015 Y170.105 E0.0776
G1 X186.015 Y169.469 E0.0312
G1 X185.531 Y168.985 E0.0335
; layer 2, Z = 0.500
M106 S2
; outer perimeter
G1 X167.725 Y187.275 F21000
G1 Z0.500 F10000
G1 X167.725 Y167.725 E0.9577 F3600
G1 X187.275 Y167.725 E0.9577
G1 X187.275 Y187.275 E0.9577
G1 X167.725 Y187.275 E0.9577
; inner perimeter
G1 X168.175 Y186.825 F21000
G1 X168.175 Y168.175 E0.9136 F4800
G1 X186.825 Y168.175 E0.9136
G1 X186.825 Y186.825 E0.9136
G1 X168.175 Y186.825 E0.9136
G1 X168.625 Y186.375 F21000
G1 X168.625 Y168.625 E0.8695 F4800
G1 X186.375 Y168.625 E0.8695
G1 X186.375 Y186.375 E0.8695
G1 X168.625 Y186.375 E0.8695
; solid layer
G1 X168.985 Y169.469 F21000
G1 X169.469 Y168.985 E0.0335 F4200
G1 X170.105 Y168.985 E0.0312
G1 X168.985 Y170.105 E0.0776
G1 X168.985 Y170.742 E0.0312
G1 X170.742 Y168.985 E0.1217
G1 X171.378 Y168.985 E0.0312
G1 X168.985 Y171.378 E0.1658
G1 X168.985 Y172.014 E0.0312
G1 X172.014 Y168.985 E0.2099
G1 X172.651 Y168.985 E0.0312
G1 X168.985 Y172.651 E0.2539
G1 X168.985 Y173.287 E0.0312
G1 X173.287 Y168.985 E0.2980
G1 X173.924 Y168.985 E0.0312
G1 X168.985 Y173.924 E0.3421
G1 X168.985 Y174.560 E0.0312
G1 X174.560 Y168.985 E0.3862
G1 X175.196 Y168.985 E0.0312
G1 X168.985 Y175.196 E0.4303
G1 X168.985 Y175.833 E0.0312
G1 X175.833 Y168.985 E0.4744
G1 X176.469 Y168.985 E0.0312
G1 X168.985 Y176.469 E0.5185
G1 X168.985 Y177.105 E0.0312
G1 X177.105 Y168.985 E0.5626
G1 X177.742 Y168.985 E0.0312
G1 X168.985 Y177.742 E0.6066
G1 X168.985 Y178.378 E0.0312
G1 X178.378 Y168.985 E0.6507
G1 X179.015 Y168.985 E0.0312
G1 X168.985 Y179.015 E0.6948
G1 X168.985 Y179.651 E0.0312
G1 X179.651 Y168.985 E0.7389
G1 X180.287 Y168.985 E0.0312
G1 X168.985 Y180.287 E0.7830
G1 X168.985 Y180.924 E0.0312
G1 X180.924 Y168.985 E0.8271
G1 X181.560 Y168.985 E0.0312
G1 X168.985 Y181.560 E0.8712
G1 X168.985 Y182.197 E0.0312
G1 X182.197 Y168.985 E0.9153
G1 X182.833 Y168.985 E0.0312
G1 X168.985 Y182.833 E0.9593
G1 X168.985 Y183.469 E0.0312
G1 X183.469 Y168.985 E1.0034
G1 X184.106 Y168.985 E0.0312
G1 X168.985 Y184.106 E1.0475
G1 X168.985 Y184.742 E0.0312
G1 X184.742 Y168.985 E1.0916
G1 X185.379 Y168.985 E0.0312
G1 X168.985 Y185.379 E1.1357
G1 X168.985 Y186.015 E0.0312
G1 X186.015 Y168.985 E1.1798
G1 X186.015 Y169.621 E0.0312
G1 X169.621 Y186.015 E1.1357
G1 X170.258 Y186.015 E0.0312
G1 X186.015 Y170.258 E1.0916
G1 X186.015 Y170.894 E0.0312
G1 X170.894 Y186.015 E1.0475
G1 X171.531 Y186.015 E0.0312
G1 X186.015 Y171.531 E1.0034
G1 X186.015 Y172.167 E0.0312
G1 X172.167 Y186.015 E0.9593
G1 X172.803 Y186.015 E0.0312
G1 X186.015 Y172.803 E0.9153
G1 X186.015 Y173.440 E0.0312
G1 X173.440 Y186.015 E0.8712
G1 X174.076 Y186.015 E0.0312
G1 X186.015 Y174.076 E0.8271
G1 X186.015 Y174.713 E0.0312
G1 X174.713 Y186.015 E0.7830
G1 X175.349 Y186.015 E0.0312
G1 X186.015 Y175.349 E0.7389
G1 X186.015 Y175.985 E0.0312
G1 X175.985 Y186.015 E0.6948
G1 X176.622 Y186.015 E0.0312
G1 X186.015 Y176.622 E0.6507
G1 X186.015 Y177.258 E0.0312
G1 X177.258 Y186.015 E0.6066
G1 X177.895 Y186.015 E0.0312
G1 X186.015 Y177.895 E0.5626
G1 X186.015 Y178.531 E0.0312
G1 X178.531 Y186.015 E0.5185
G1 X179.167 Y186.015 E0.0312
G1 X186.015 Y179.167 E0.4744
G1 X186.015 Y179.804 E0.0312
G1 X179.804 Y186.015 E0.4303
G1 X180.440 Y186.015 E0.0312
G1 X186.015 Y180.440 E0.3862
G1 X186.015 Y181.077 E0.0312
G1 X181.077 Y186.015 E0.3421
G1 X181.713 Y186.015 E0.0312
G1 X186.015 Y181.713 E0.2980
G1 X186.015 Y182.349 E0.0312
G1 X182.349 Y186.015 E0.2539
G1 X182.986 Y186.015 E0.0312
G1 X186.015 Y182.986 E0.2099
G1 X186.015 Y183.622 E0.0312
G1 X183.622 Y186.015 E0.1658
G1 X184.259 Y186.015 E0.0312
G1 X186.015 Y184.259 E0.1217
G1 X186.015 Y184.895 E0.0312
G1 X184.895 Y186.015 E0.0776
G1 X185.531 Y186.015 E0.0312
G1 X186.015 Y185.531 E0.0335
; layer 3, Z = 0.750
M106 S66
; outer perimeter
G1 X167.725 Y187.275 F21000
G1 Z0.750 F10000
G1 X167.725 Y167.725 E0.9577 F3600
G1 X187.275 Y167.725 E0.9577
G1 X187.275 Y187.275 E0.9577
G1 X167.725 Y187.275 E0.9577
; inner perimeter
G1 X168.175 Y186.825 F21000
G1 X168.175 Y168.175 E0.9136 F4800
G1 X186.825 Y168.175 E0.9136
G1 X186.825 Y186.825 E0.9136
G1 X168.175 Y186.825 E0.9136
G1 X168.625 Y186.375 F21000
G1 X168.625 Y168.625 E0.8695 F4800
G1 X186.375 Y168.625 E0.8695
G1 X186.375 Y186.375 E0.8695
G1 X168.625 Y186.375 E0.8695
; solid layer
G1 X169.469 Y186.015 F21000
G1 X168.985 Y185.531 E0.0335 F4200
G1 X168.985 Y184.895 E0.0312
G1 X170.105 Y186.015 E0.0776
G1 X170.741 Y186.015 E0.0312
G1 X168.985 Y184.259 E0.1217
G1 X168.985 Y183.622 E0.0312
G1 X171.378 Y186.015 E0.1658
