; G-Code generated by Simplify3D(R) Version 4.0.1
; Mar 28, 2023 at 2:14:49 PM
; Settings Summary
;   processName,Process1
;   applyToModels,TheVwoop
;   profileName,F410_0.4C_PLA (modified)
;   profileVersion,2022-03-09 09:51:28
;   baseProfile,F400_PLA
;   printMaterial,
;   printQuality,Standard
;   printExtruders,
;   extruderName,Primary Extruder
;   extruderToolheadNumber,0
;   extruderDiameter,0.4
;   extruderAutoWidth,0
;   extruderWidth,0.45
;   extrusionMultiplier,1
;   extruderUseRetract,1
;   extruderRetractionDistance,4.25
;   extruderExtraRestartDistance,0.05
;   extruderRetractionZLift,0
;   extruderRetractionSpeed,24000
;   extruderUseCoasting,0
;   extruderCoastingDistance,0.5
;   extruderUseWipe,0
;   extruderWipeDistance,5
;   primaryExtruder,0
;   layerHeight,0.25
;   topSolidLayers,4
;   bottomSolidLayers,4
;   perimeterOutlines,3
;   printPerimetersInsideOut,0
;   startPointOption,3
;   startPointOriginX,0
;   startPointOriginY,360
;   sequentialIslands,0
;   spiralVaseMode,0
;   firstLayerHeightPercentage,100
;   firstLayerWidthPercentage,100
;   firstLayerUnderspeed,0.4
;   useRaft,0
;   raftExtruder,0
;   raftTopLayers,2
;   raftBaseLayers,0
;   raftOffset,4
;   raftSeparationDistance,0.15
;   raftTopInfill,100
;   aboveRaftSpeedMultiplier,0.3
;   useSkirt,1
;   skirtExtruder,0
;   skirtLayers,1
;   skirtOutlines,1
;   skirtOffset,5
;   usePrimePillar,0
;   primePillarExtruder,999
;   primePillarWidth,12
;   primePillarLocation,7
;   primePillarSpeedMultiplier,1
;   useOozeShield,0
;   oozeShieldExtruder,999
;   oozeShieldOffset,2
;   oozeShieldOutlines,1
;   oozeShieldSidewallShape,1
;   oozeShieldSidewallAngle,30
;   oozeShieldSpeedMultiplier,1
;   infillExtruder,0
;   internalInfillPattern,Rectilinear
;   externalInfillPattern,Rectilinear
;   infillPercentage,25
;   outlineOverlapPercentage,20
;   infillExtrusionWidthPercentage,100
;   minInfillLength,5
;   infillLayerInterval,1
;   internalInfillAngles,45,-45
;   overlapInternalInfillAngles,0
;   externalInfillAngles,45,-45
;   generateSupport,1
;   supportExtruder,0
;   supportInfillPercentage,30
;   supportExtraInflation,0.5
;   supportBaseLayers,0
;   denseSupportExtruder,0
;   denseSupportLayers,0
;   denseSupportInfillPercentage,70
;   supportLayerInterval,1
;   supportHorizontalPartOffset,0.35
;   supportUpperSeparationLayers,1
;   supportLowerSeparationLayers,1
;   supportType,0
;   supportGridSpacing,2
;   maxOverhangAngle,45
;   supportAngles,45
;   temperatureName,Primary Extruder,Heated Bed
;   temperatureNumber,0,2
;   temperatureSetpointCount,1,1
;   temperatureSetpointLayers,1,1
;   temperatureSetpointTemperatures,230,45
;   temperatureStabilizeAtStartup,0,0
;   temperatureHeatedBed,0,1
;   temperatureRelayBetweenLayers,0,0
;   temperatureRelayBetweenLoops,0,0
;   fanLayers,1,3,4,5
;   fanSpeeds,0,25,50,100
;   blipFanToFullPower,0
;   adjustSpeedForCooling,1
;   minSpeedLayerTime,5
;   minCoolingSpeedSlowdown,30
;   increaseFanForCooling,1
;   minFanLayerTime,13
;   maxCoolingFanSpeed,100
;   increaseFanForBridging,1
;   bridgingFanSpeed,100
;   use5D,1
;   relativeEdistances,1
;   allowEaxisZeroing,1
;   independentExtruderAxes,0
;   includeM10123,0
;   stickySupport,1
;   applyToolheadOffsets,0
;   gcodeXoffset,0
;   gcodeYoffset,0
;   gcodeZoffset,0
;   overrideMachineDefinition,1
;   machineTypeOverride,0
;   strokeXoverride,355
;   strokeYoverride,355
;   strokeZoverride,315
;   originOffsetXoverride,0
;   originOffsetYoverride,0
;   originOffsetZoverride,0
;   homeXdirOverride,1
;   homeYdirOverride,-1
;   homeZdirOverride,1
;   flipXoverride,1
;   flipYoverride,-1
;   flipZoverride,1
;   toolheadOffsets,0,0|0,0|0,0|0,0|0,0|0,0
;   overrideFirmwareConfiguration,1
;   firmwareTypeOverride,RepRap (Marlin/Repetier/Sprinter)
;   GPXconfigOverride,r2
;   baudRateOverride,115200
;   overridePrinterModels,0
;   printerModelsOverride
;   startingGcode,M104 S0 ;cancel S3D set temp,G21  ; set units to mm,G90  ; use absolute coordinates,T0  ; select tool 0,G92 E0.0  ; reset e count,M220 S100 ; reset speed multiplier,M140 S[bed2_temperature]  ; set bed temp and do not wait,G32  ; probe bed,M190 S[bed2_temperature]  ; set bed temperature and wait,M109 S[extruder0_temperature]  ; set print head temperature and wait,; === pause for heating ===,; reset filament monitor,M42 P63 S0,G4 P100,G4 P50,M42 P63 S1,;,G1 Z10.0 F2000  ; move up,G1 E30.0 F500  ; prime extruder,G1 X20 Y15 F9000  ; move back,G1 Z0 F1000  ; move down to begin wipe,G1 X150 E4.0 F10000  ; wipe print head (extrude material while we do this),G92 E0.0  ; reset e count
;   layerChangeGcode,
;   retractionGcode,
;   toolChangeGcode,
;   endingGcode,G91  ;relative positioning,G1 E-5.00 F1000  ;retract 5mm of filament,G1 Z+1.00 X-20.0 Y+20.0 F10000  ;short quick move to disengage from print,G90  ;absolute positioning,G1 X0.0 Y350.0 F9000  ; move head to back left corner,G91  ; relative positioning,G1 E-5.00 F500  ;retract additional filament to prevent oozing,G90 ;absolute positioning,M104 S0  ;turn off hotend,M140 S0  ;turn off heatbed,; Reset filament monitor,M42 P63 S0,G4 P100,G4 P50,M42 P63 S1,;,G1 Z315 F1000 ;move print bed down to idle position,M106 S0  ; shut off blower,M84  ;motors off,M561  ;clear bed probe transformation
;   exportFileFormat,gcode
;   celebration,0
;   celebrationSong,Random Song
;   postProcessing,
;   defaultSpeed,6000
;   outlineUnderspeed,0.6
;   solidInfillUnderspeed,0.7
;   supportUnderspeed,1
;   rapidXYspeed,21000
;   rapidZspeed,10000
;   minBridgingArea,50
;   bridgingExtraInflation,0.5
;   bridgingExtrusionMultiplier,1
;   bridgingSpeedMultiplier,0.6
;   useFixedBridgingAngle,0
;   fixedBridgingAngle,0
;   applyBridgingToPerimeters,0
;   filamentDiameters,1.71|1.71|1.71|1.71|1.71|1.71
;   filamentPricesPerKg,46|46|46|46|46|46
;   filamentDensities,1.25|1.25|1.25|1.25|1.25|1.25
;   useMinPrintHeight,0
;   minPrintHeight,13
;   useMaxPrintHeight,0
;   maxPrintHeight,13
;   useDiaphragm,0
;   diaphragmLayerInterval,20
;   robustSlicing,1
;   mergeAllIntoSolid,0
;   onlyRetractWhenCrossingOutline,1
;   retractBetweenLayers,0
;   useRetractionMinTravel,0
;   retractionMinTravel,1
;   retractWhileWiping,0
;   onlyWipeOutlines,1
;   avoidCrossingOutline,0
;   maxMovementDetourFactor,3
;   toolChangeRetractionDistance,0
;   toolChangeExtraRestartDistance,0
;   toolChangeRetractionSpeed,360
;   externalThinWallType,1
;   internalThinWallType,1
;   thinWallAllowedOverlapPercentage,50
;   singleExtrusionMinLength,1
;   singleExtrusionMinPrintingWidthPercentage,50
;   singleExtrusionMaxPrintingWidthPercentage,200
;   singleExtrusionEndpointExtension,0.2
;   horizontalSizeCompensation,0
G90
M83
M106 S0
M104 S0 ;cancel S3D set temp
G21  ; set units to mm
G90  ; use absolute coordinates
T0  ; select tool 0
G92 E0.0  ; reset e count
M220 S100 ; reset speed multiplier
M140 S45  ; set bed temp and do not wait
G32  ; probe bed
M190 S45  ; set bed temperature and wait
M109 S230  ; set print head temperature and wait
; === pause for heating ===
; reset filament monitor
M42 P63 S0
G4 P100
G4 P50
M42 P63 S1
;
G1 Z10.0 F2000  ; move up
G1 E30.0 F500  ; prime extruder
G1 X20 Y15 F9000  ; move back
G1 Z0 F1000  ; move down to begin wipe
G1 X150 E4.0 F10000  ; wipe print head (extrude material while we do this)
G92 E0.0  ; reset e count
G1 E-4.2500 F24000
G1 Z0.250 F10000
; process Process1
; layer 1, Z = 0.250
T0
; tool H0.250 W0.450
; skirt
G1 X103.052 Y110.747 F21000
G1 E4.3000 F7200
G1 X103.135 Y110.712 E0.0044 F2400
G1 X110.847 Y110.712 E0.3778
G1 X110.929 Y110.747 E0.0044
G1 X113.921 Y113.739 E0.2073
G1 X113.956 Y113.822 E0.0044
G1 X113.956 Y120.348 E0.3197
G1 X113.979 Y120.339 E0.0012
G1 X121.149 Y120.339 E0.3512
G1 X122.746 Y118.742 E0.1106
G1 X122.828 Y118.708 E0.0044
G1 X129.060 Y118.708 E0.3053
G1 X129.143 Y118.742 E0.0044
G1 X129.163 Y118.762 E0.0014
G1 X225.837 Y118.762 E4.7357
G1 X225.857 Y118.742 E0.0014
G1 X225.940 Y118.708 E0.0044
G1 X232.172 Y118.708 E0.3053
G1 X232.254 Y118.742 E0.0044
G1 X235.246 Y121.734 E0.2073
G1 X235.281 Y121.817 E0.0044
G1 X235.281 Y127.704 E0.2884
G1 X236.168 Y126.817 E0.0614
G1 X236.250 Y126.782 E0.0044
G1 X243.962 Y126.782 E0.3778
G1 X244.045 Y126.817 E0.0044
G1 X247.037 Y129.809 E0.2073
G1 X247.071 Y129.892 E0.0044
G1 X247.071 Y134.067 E0.2045
G1 X249.164 Y134.067 E0.1025
G1 X249.246 Y134.101 E0.0044
G1 X252.239 Y137.093 E0.2073
G1 X252.273 Y137.176 E0.0044
G1 X252.273 Y144.888 E0.3778
G1 X252.239 Y144.970 E0.0044
G1 X251.744 Y145.464 E0.0342
G1 X253.963 Y147.684 E0.1537
G1 X253.998 Y147.766 E0.0044
G1 X253.998 Y155.478 E0.3778
G1 X253.963 Y155.561 E0.0044
G1 X253.230 Y156.294 E0.0508
G1 X254.882 Y157.945 E0.1144
G1 X254.916 Y158.028 E0.0044
G1 X254.916 Y165.739 E0.3778
G1 X254.882 Y165.822 E0.0044
G1 X251.889 Y168.814 E0.2073
G1 X251.807 Y168.849 E0.0044
G1 X244.095 Y168.849 E0.3778
G1 X244.072 Y168.839 E0.0012
G1 X243.479 Y169.431 E0.0410
G1 X244.743 Y170.695 E0.0875
G1 X250.613 Y170.695 E0.2875
G1 X250.695 Y170.729 E0.0044
G1 X253.688 Y173.721 E0.2073
G1 X253.722 Y173.804 E0.0044
G1 X253.722 Y181.515 E0.3778
G1 X253.688 Y181.598 E0.0044
G1 X251.824 Y183.462 E0.1291
G1 X252.510 Y184.148 E0.0475
G1 X252.544 Y184.231 E0.0044
G1 X252.544 Y191.943 E0.3778
G1 X252.510 Y192.025 E0.0044
G1 X251.730 Y192.805 E0.0540
G1 X252.288 Y193.364 E0.0387
G1 X252.322 Y193.447 E0.0044
G1 X252.322 Y201.158 E0.3778
G1 X252.288 Y201.241 E0.0044
G1 X251.892 Y201.637 E0.0274
G1 X252.312 Y202.057 E0.0291
G1 X252.346 Y202.140 E0.0044
G1 X252.346 Y207.733 E0.2740
G1 X254.452 Y209.838 E0.1459
G1 X254.486 Y209.921 E0.0044
G1 X254.486 Y217.632 E0.3778
G1 X254.452 Y217.715 E0.0044
G1 X251.459 Y220.707 E0.2073
G1 X251.377 Y220.742 E0.0044
G1 X243.665 Y220.742 E0.3778
G1 X243.582 Y220.707 E0.0044
G1 X240.590 Y217.715 E0.2073
G1 X240.556 Y217.632 E0.0044
G1 X240.556 Y217.089 E0.0266
G1 X240.377 Y217.268 E0.0124
G1 X240.294 Y217.302 E0.0044
G1 X232.582 Y217.302 E0.3778
G1 X232.500 Y217.268 E0.0044
G1 X230.159 Y214.927 E0.1622
G1 X204.967 Y214.927 E1.2340
G1 X206.691 Y216.651 E0.1194
G1 X210.027 Y216.651 E0.1634
G1 X210.109 Y216.685 E0.0044
G1 X210.290 Y216.865 E0.0125
G1 X211.264 Y215.891 E0.0675
G1 X211.347 Y215.857 E0.0044
G1 X217.825 Y215.857 E0.3173
G1 X218.101 Y215.580 E0.0192
G1 X218.184 Y215.546 E0.0044
G1 X225.896 Y215.546 E0.3778
G1 X225.978 Y215.580 E0.0044
G1 X228.970 Y218.572 E0.2073
G1 X229.005 Y218.655 E0.0044
G1 X229.005 Y226.367 E0.3778
G1 X228.970 Y226.449 E0.0044
G1 X225.978 Y229.442 E0.2073
G1 X225.896 Y229.476 E0.0044
G1 X219.418 Y229.476 E0.3173
G1 X219.141 Y229.752 E0.0192
G1 X219.058 Y229.787 E0.0044
G1 X211.347 Y229.787 E0.3778
G1 X211.264 Y229.752 E0.0044
G1 X211.084 Y229.572 E0.0125
G1 X210.109 Y230.546 E0.0675
G1 X210.027 Y230.581 E0.0044
G1 X202.315 Y230.581 E0.3778
G1 X202.232 Y230.546 E0.0044
G1 X200.159 Y228.473 E0.1436
G1 X196.823 Y228.473 E0.1634
G1 X196.741 Y228.439 E0.0044
G1 X193.748 Y225.447 E0.2073
G1 X193.714 Y225.364 E0.0044
G1 X193.714 Y217.653 E0.3778
G1 X193.748 Y217.570 E0.0044
G1 X196.391 Y214.927 E0.1831
G1 X180.218 Y214.927 E0.7922
G1 X181.231 Y215.939 E0.0701
G1 X186.827 Y215.939 E0.2741
G1 X186.909 Y215.974 E0.0044
G1 X189.901 Y218.966 E0.2073
G1 X189.936 Y219.048 E0.0044
G1 X189.936 Y226.760 E0.3778
G1 X189.901 Y226.843 E0.0044
G1 X186.909 Y229.835 E0.2073
G1 X186.827 Y229.869 E0.0044
G1 X179.115 Y229.869 E0.3778
G1 X179.032 Y229.835 E0.0044
G1 X177.110 Y227.913 E0.1331
G1 X171.514 Y227.913 E0.2741
G1 X171.432 Y227.879 E0.0044
G1 X168.440 Y224.887 E0.2073
G1 X168.429 Y224.860 E0.0014
G1 X162.788 Y224.860 E0.2763
G1 X162.706 Y224.826 E0.0044
G1 X159.713 Y221.834 E0.2073
G1 X159.679 Y221.751 E0.0044
G1 X159.679 Y214.927 E0.3343
G1 X123.987 Y214.927 E1.7484
G1 X122.850 Y216.065 E0.0788
G1 X122.850 Y223.063 E0.3428
G1 X122.816 Y223.145 E0.0044
G1 X119.823 Y226.138 E0.2073
G1 X119.741 Y226.172 E0.0044
G1 X116.705 Y226.172 E0.1487
G1 X118.105 Y227.572 E0.0970
G1 X118.139 Y227.654 E0.0044
G1 X118.139 Y235.366 E0.3778
G1 X118.105 Y235.449 E0.0044
G1 X115.113 Y238.441 E0.2073
G1 X115.030 Y238.475 E0.0044
G1 X107.318 Y238.475 E0.3778
G1 X107.236 Y238.441 E0.0044
G1 X104.243 Y235.449 E0.2073
G1 X104.209 Y235.366 E0.0044
G1 X104.209 Y227.654 E0.3778
G1 X104.243 Y227.572 E0.0044
G1 X107.236 Y224.579 E0.2073
G1 X107.318 Y224.545 E0.0044
G1 X110.354 Y224.545 E0.1487
G1 X108.954 Y223.145 E0.0970
G1 X108.920 Y223.063 E0.0044
G1 X108.920 Y217.877 E0.2540
G1 X105.777 Y217.877 E0.1539
G1 X105.695 Y217.843 E0.0044
G1 X102.702 Y214.851 E0.2073
G1 X102.668 Y214.768 E0.0044
G1 X102.668 Y207.056 E0.3778
G1 X102.702 Y206.974 E0.0044
G1 X105.695 Y203.981 E0.2073
G1 X105.777 Y203.947 E0.0044
G1 X107.927 Y203.947 E0.1053
G1 X107.927 Y202.930 E0.0498
G1 X103.677 Y202.930 E0.2082
G1 X103.594 Y202.895 E0.0044
G1 X100.602 Y199.903 E0.2073
G1 X100.568 Y199.821 E0.0044
G1 X100.568 Y192.109 E0.3778
G1 X100.602 Y192.026 E0.0044
G1 X103.594 Y189.034 E0.2073
G1 X103.677 Y189.000 E0.0044
G1 X109.130 Y189.000 E0.2671
G1 X109.130 Y186.997 E0.0981
G1 X104.755 Y186.997 E0.2143
G1 X104.672 Y186.963 E0.0044
G1 X101.680 Y183.970 E0.2073
G1 X101.645 Y183.888 E0.0044
G1 X101.645 Y176.176 E0.3778
G1 X101.680 Y176.093 E0.0044
G1 X104.077 Y173.696 E0.1661
G1 X103.704 Y173.696 E0.0183
G1 X103.621 Y173.662 E0.0044
G1 X100.629 Y170.669 E0.2073
G1 X100.594 Y170.587 E0.0044
G1 X100.594 Y162.875 E0.3778
G1 X100.629 Y162.792 E0.0044
G1 X103.471 Y159.950 E0.1969
G1 X101.752 Y158.231 E0.1191
G1 X101.718 Y158.148 E0.0044
G1 X101.718 Y150.436 E0.3778
G1 X101.752 Y150.354 E0.0044
G1 X104.745 Y147.362 E0.2073
G1 X104.827 Y147.327 E0.0044
G1 X109.864 Y147.327 E0.2467
G1 X109.864 Y147.174 E0.0075
G1 X104.446 Y147.174 E0.2654
G1 X104.364 Y147.140 E0.0044
G1 X101.371 Y144.148 E0.2073
G1 X101.337 Y144.065 E0.0044
G1 X101.337 Y136.353 E0.3778
G1 X101.371 Y136.271 E0.0044
G1 X103.178 Y134.464 E0.1251
G1 X103.164 Y134.431 E0.0018
G1 X103.164 Y126.719 E0.3778
G1 X103.198 Y126.637 E0.0044
G1 X105.193 Y124.642 E0.1382
G1 X103.135 Y124.642 E0.1008
G1 X103.052 Y124.608 E0.0044
G1 X100.060 Y121.616 E0.2073
G1 X100.026 Y121.533 E0.0044
G1 X100.026 Y113.822 E0.3778
G1 X100.060 Y113.739 E0.0044
G1 X103.052 Y110.747 E0.2073
G1 E-4.2500 F24000
G1 X131.958 Y215.776 F21000
G1 E4.3000 F24000
G1 X139.669 Y215.776 E0.3778 F2400
G1 X139.752 Y215.810 E0.0044
G1 X141.736 Y217.794 E0.1375
G1 X143.936 Y215.595 E0.1524
G1 X144.019 Y215.560 E0.0044
G1 X151.730 Y215.560 E0.3778
G1 X151.813 Y215.595 E0.0044
G1 X154.805 Y218.587 E0.2073
G1 X154.839 Y218.670 E0.0044
G1 X154.839 Y226.381 E0.3778
G1 X154.805 Y226.464 E0.0044
G1 X151.813 Y229.456 E0.2073
G1 X151.730 Y229.490 E0.0044
G1 X144.019 Y229.490 E0.3778
G1 X143.936 Y229.456 E0.0044
G1 X141.952 Y227.472 E0.1375
G1 X139.752 Y229.671 E0.1524
G1 X139.669 Y229.706 E0.0044
G1 X131.958 Y229.706 E0.3778
G1 X131.875 Y229.671 E0.0044
G1 X128.883 Y226.679 E0.2073
G1 X128.848 Y226.597 E0.0044
G1 X128.848 Y218.885 E0.3778
G1 X128.883 Y218.802 E0.0044
G1 X131.875 Y215.810 E0.2073
G1 X131.958 Y215.776 E0.0044
G1 X132.904 Y230.772 F21000
G1 X132.987 Y230.806 E0.0044 F2400
G1 X135.759 Y233.579 E0.1921
G1 X140.871 Y233.579 E0.2504
G1 X140.954 Y233.613 E0.0044
G1 X143.946 Y236.605 E0.2073
G1 X143.980 Y236.688 E0.0044
G1 X143.980 Y237.567 E0.0430
G1 X149.107 Y237.567 E0.2511
G1 X149.189 Y237.601 E0.0044
G1 X150.512 Y238.923 E0.0916
G1 X152.351 Y237.084 E0.1274
G1 X152.434 Y237.049 E0.0044
G1 X160.145 Y237.049 E0.3778
G1 X160.228 Y237.084 E0.0044
G1 X160.535 Y237.390 E0.0213
G1 X160.684 Y237.242 E0.0103
G1 X160.766 Y237.207 E0.0044
G1 X168.478 Y237.207 E0.3778
G1 X168.561 Y237.242 E0.0044
G1 X170.326 Y239.006 E0.1223
G1 X173.100 Y236.232 E0.1922
G1 X173.183 Y236.198 E0.0044
G1 X180.894 Y236.198 E0.3778
G1 X180.977 Y236.232 E0.0044
G1 X183.346 Y238.601 E0.1641
G1 X186.930 Y238.601 E0.1755
G1 X189.199 Y236.331 E0.1573
G1 X189.282 Y236.297 E0.0044
G1 X195.056 Y236.297 E0.2828
G1 X195.118 Y236.235 E0.0043
G1 X195.201 Y236.201 E0.0044
G1 X202.479 Y236.201 E0.3566
G1 X202.612 Y236.069 E0.0092
G1 X202.694 Y236.034 E0.0044
