; G-Code generated by Simplify3D(R) Version 4.0.1
; Mar 22, 2023 at 1:09:24 PM
; Settings Summary
;   processName,Process1
;   applyToModels,Wheel
;   profileName,F410_0.4C_PLA (modified)
;   profileVersion,2022-03-09 09:51:28
;   baseProfile,F400_PLA
;   printMaterial,
;   printQuality,Standard
;   printExtruders,
;   extruderName,Primary Extruder
;   extruderToolheadNumber,0
;   extruderDiameter,0.4
;   extruderAutoWidth,0
;   extruderWidth,0.45
;   extrusionMultiplier,1
;   extruderUseRetract,1
;   extruderRetractionDistance,4.25
;   extruderExtraRestartDistance,0.05
;   extruderRetractionZLift,0
;   extruderRetractionSpeed,24000
;   extruderUseCoasting,0
;   extruderCoastingDistance,0.5
;   extruderUseWipe,0
;   extruderWipeDistance,5
;   primaryExtruder,0
;   layerHeight,0.25
;   topSolidLayers,4
;   bottomSolidLayers,4
;   perimeterOutlines,3
;   printPerimetersInsideOut,0
;   startPointOption,3
;   startPointOriginX,0
;   startPointOriginY,360
;   sequentialIslands,0
;   spiralVaseMode,0
;   firstLayerHeightPercentage,100
;   firstLayerWidthPercentage,100
;   firstLayerUnderspeed,0.4
;   useRaft,0
;   raftExtruder,0
;   raftTopLayers,2
;   raftBaseLayers,0
;   raftOffset,4
;   raftSeparationDistance,0.15
;   raftTopInfill,100
;   aboveRaftSpeedMultiplier,0.3
;   useSkirt,1
;   skirtExtruder,0
;   skirtLayers,1
;   skirtOutlines,1
;   skirtOffset,5
;   usePrimePillar,0
;   primePillarExtruder,999
;   primePillarWidth,12
;   primePillarLocation,7
;   primePillarSpeedMultiplier,1
;   useOozeShield,0
;   oozeShieldExtruder,999
;   oozeShieldOffset,2
;   oozeShieldOutlines,1
;   oozeShieldSidewallShape,1
;   oozeShieldSidewallAngle,30
;   oozeShieldSpeedMultiplier,1
;   infillExtruder,0
;   internalInfillPattern,Rectilinear
;   externalInfillPattern,Rectilinear
;   infillPercentage,25
;   outlineOverlapPercentage,20
;   infillExtrusionWidthPercentage,100
;   minInfillLength,5
;   infillLayerInterval,1
;   internalInfillAngles,45,-45
;   overlapInternalInfillAngles,0
;   externalInfillAngles,45,-45
;   generateSupport,0
;   supportExtruder,0
;   supportInfillPercentage,30
;   supportExtraInflation,0.5
;   supportBaseLayers,0
;   denseSupportExtruder,0
;   denseSupportLayers,0
;   denseSupportInfillPercentage,70
;   supportLayerInterval,1
;   supportHorizontalPartOffset,0.35
;   supportUpperSeparationLayers,1
;   supportLowerSeparationLayers,1
;   supportType,0
;   supportGridSpacing,2
;   maxOverhangAngle,45
;   supportAngles,45
;   temperatureName,Primary Extruder,Heated Bed
;   temperatureNumber,0,2
;   temperatureSetpointCount,1,1
;   temperatureSetpointLayers,1,1
;   temperatureSetpointTemperatures,230,45
;   temperatureStabilizeAtStartup,0,0
;   temperatureHeatedBed,0,1
;   temperatureRelayBetweenLayers,0,0
;   temperatureRelayBetweenLoops,0,0
;   fanLayers,1,3,4,5
;   fanSpeeds,0,25,50,100
;   blipFanToFullPower,0
;   adjustSpeedForCooling,1
;   minSpeedLayerTime,5
;   minCoolingSpeedSlowdown,30
;   increaseFanForCooling,1
;   minFanLayerTime,13
;   maxCoolingFanSpeed,100
;   increaseFanForBridging,1
;   bridgingFanSpeed,100
;   use5D,1
;   relativeEdistances,1
;   allowEaxisZeroing,1
;   independentExtruderAxes,0
;   includeM10123,0
;   stickySupport,1
;   applyToolheadOffsets,0
;   gcodeXoffset,0
;   gcodeYoffset,0
;   gcodeZoffset,0
;   overrideMachineDefinition,1
;   machineTypeOverride,0
;   strokeXoverride,355
;   strokeYoverride,355
;   strokeZoverride,315
;   originOffsetXoverride,0
;   originOffsetYoverride,0
;   originOffsetZoverride,0
;   homeXdirOverride,1
;   homeYdirOverride,-1
;   homeZdirOverride,1
;   flipXoverride,1
;   flipYoverride,-1
;   flipZoverride,1
;   toolheadOffsets,0,0|0,0|0,0|0,0|0,0|0,0
;   overrideFirmwareConfiguration,1
;   firmwareTypeOverride,RepRap (Marlin/Repetier/Sprinter)
;   GPXconfigOverride,r2
;   baudRateOverride,115200
;   overridePrinterModels,0
;   printerModelsOverride
;   startingGcode,M104 S0 ;cancel S3D set temp,G21  ; set units to mm,G90  ; use absolute coordinates,T0  ; select tool 0,G92 E0.0  ; reset e count,M220 S100 ; reset speed multiplier,M140 S[bed2_temperature]  ; set bed temp and do not wait,G32  ; probe bed,M190 S[bed2_temperature]  ; set bed temperature and wait,M109 S[extruder0_temperature]  ; set print head temperature and wait,; === pause for heating ===,; reset filament monitor,M42 P63 S0,G4 P100,G4 P50,M42 P63 S1,;,G1 Z10.0 F2000  ; move up,G1 E30.0 F500  ; prime extruder,G1 X20 Y15 F9000  ; move back,G1 Z0 F1000  ; move down to begin wipe,G1 X150 E4.0 F10000  ; wipe print head (extrude material while we do this),G92 E0.0  ; reset e count
;   layerChangeGcode,
;   retractionGcode,
;   toolChangeGcode,
;   endingGcode,G91  ;relative positioning,G1 E-5.00 F1000  ;retract 5mm of filament,G1 Z+1.00 X-20.0 Y+20.0 F10000  ;short quick move to disengage from print,G90  ;absolute positioning,G1 X0.0 Y350.0 F9000  ; move head to back left corner,G91  ; relative positioning,G1 E-5.00 F500  ;retract additional filament to prevent oozing,G90 ;absolute positioning,M104 S0  ;turn off hotend,M140 S0  ;turn off heatbed,; Reset filament monitor,M42 P63 S0,G4 P100,G4 P50,M42 P63 S1,;,G1 Z315 F1000 ;move print bed down to idle position,M106 S0  ; shut off blower,M84  ;motors off,M561  ;clear bed probe transformation
;   exportFileFormat,gcode
;   celebration,0
;   celebrationSong,Random Song
;   postProcessing,
;   defaultSpeed,6000
;   outlineUnderspeed,0.6
;   solidInfillUnderspeed,0.7
;   supportUnderspeed,1
;   rapidXYspeed,21000
;   rapidZspeed,10000
;   minBridgingArea,50
;   bridgingExtraInflation,0.5
;   bridgingExtrusionMultiplier,1
;   bridgingSpeedMultiplier,0.6
;   useFixedBridgingAngle,0
;   fixedBridgingAngle,0
;   applyBridgingToPerimeters,0
;   filamentDiameters,1.71|1.71|1.71|1.71|1.71|1.71
;   filamentPricesPerKg,46|46|46|46|46|46
;   filamentDensities,1.25|1.25|1.25|1.25|1.25|1.25
;   useMinPrintHeight,0
;   minPrintHeight,13
;   useMaxPrintHeight,0
;   maxPrintHeight,13
;   useDiaphragm,0
;   diaphragmLayerInterval,20
;   robustSlicing,1
;   mergeAllIntoSolid,0
;   onlyRetractWhenCrossingOutline,1
;   retractBetweenLayers,0
;   useRetractionMinTravel,0
;   retractionMinTravel,1
;   retractWhileWiping,0
;   onlyWipeOutlines,1
;   avoidCrossingOutline,0
;   maxMovementDetourFactor,3
;   toolChangeRetractionDistance,0
;   toolChangeExtraRestartDistance,0
;   toolChangeRetractionSpeed,360
;   externalThinWallType,1
;   internalThinWallType,1
;   thinWallAllowedOverlapPercentage,50
;   singleExtrusionMinLength,1
;   singleExtrusionMinPrintingWidthPercentage,50
;   singleExtrusionMaxPrintingWidthPercentage,200
;   singleExtrusionEndpointExtension,0.2
;   horizontalSizeCompensation,0
G90
M83
M106 S0
M104 S0 ;cancel S3D set temp
G21  ; set units to mm
G90  ; use absolute coordinates
T0  ; select tool 0
G92 E0.0  ; reset e count
M220 S100 ; reset speed multiplier
M140 S45  ; set bed temp and do not wait
G32  ; probe bed
M190 S45  ; set bed temperature and wait
M109 S230  ; set print head temperature and wait
; === pause for heating ===
; reset filament monitor
M42 P63 S0
G4 P100
G4 P50
M42 P63 S1
;
G1 Z10.0 F2000  ; move up
G1 E30.0 F500  ; prime extruder
G1 X20 Y15 F9000  ; move back
G1 Z0 F1000  ; move down to begin wipe
G1 X150 E4.0 F10000  ; wipe print head (extrude material while we do this)
G92 E0.0  ; reset e count
G1 E-4.2500 F24000
G1 Z0.250 F10000
; process Process1
; layer 1, Z = 0.250
T0
; tool H0.250 W0.450
; skirt
G1 X162.061 Y161.959 F21000
G1 E4.3000 F7200
G1 X162.803 Y161.219 E0.0513 F2400
G1 X162.805 Y161.217 E0.0001
G1 X162.893 Y161.134 E0.0059
G1 X162.895 Y161.132 E0.0001
G1 X163.888 Y160.233 E0.0657
G1 X163.891 Y160.230 E0.0002
G1 X164.025 Y160.117 E0.0086
G1 X164.028 Y160.114 E0.0002
G1 X164.902 Y159.426 E0.0545
G1 X164.905 Y159.424 E0.0002
G1 X165.019 Y159.338 E0.0070
G1 X165.022 Y159.336 E0.0002
G1 X165.976 Y158.668 E0.0571
G1 X165.978 Y158.666 E0.0001
G1 X166.087 Y158.594 E0.0064
G1 X166.089 Y158.592 E0.0001
G1 X167.155 Y157.924 E0.0616
G1 X167.157 Y157.923 E0.0001
G1 X167.263 Y157.860 E0.0060
G1 X167.265 Y157.859 E0.0001
G1 X168.204 Y157.330 E0.0528
G1 X168.207 Y157.329 E0.0002
G1 X168.347 Y157.255 E0.0077
G1 X168.350 Y157.254 E0.0002
G1 X169.438 Y156.728 E0.0592
G1 X169.441 Y156.726 E0.0002
G1 X169.602 Y156.655 E0.0086
G1 X169.605 Y156.654 E0.0002
G1 X171.725 Y155.802 E0.1119
G1 X171.729 Y155.801 E0.0002
G1 X171.908 Y155.736 E0.0093
G1 X171.912 Y155.735 E0.0002
G1 X174.083 Y155.045 E0.1116
G1 X174.531 Y154.750 E0.0263
G1 X174.560 Y154.736 E0.0016
G1 X175.962 Y154.306 E0.0718
G1 X175.993 Y154.301 E0.0016
G1 X177.835 Y154.278 E0.0902
G1 X177.838 Y154.278 E0.0002
G1 X178.003 Y154.281 E0.0081
G1 X178.006 Y154.281 E0.0002
G1 X179.392 Y154.352 E0.0680
G1 X179.396 Y154.353 E0.0002
G1 X179.565 Y154.367 E0.0083
G1 X179.569 Y154.367 E0.0002
G1 X180.899 Y154.525 E0.0656
G1 X180.903 Y154.525 E0.0002
G1 X181.066 Y154.550 E0.0081
G1 X181.070 Y154.551 E0.0002
G1 X182.361 Y154.789 E0.0643
G1 X182.365 Y154.790 E0.0002
G1 X182.524 Y154.825 E0.0080
G1 X182.527 Y154.826 E0.0002
G1 X183.787 Y155.142 E0.0637
G1 X183.791 Y155.143 E0.0002
G1 X183.946 Y155.188 E0.0079
G1 X183.949 Y155.189 E0.0002
G1 X185.174 Y155.580 E0.0630
G1 X185.177 Y155.581 E0.0002
G1 X185.319 Y155.631 E0.0073
G1 X185.322 Y155.632 E0.0002
G1 X186.399 Y156.047 E0.0566
G1 X186.403 Y156.049 E0.0002
G1 X186.552 Y156.112 E0.0080
G1 X186.556 Y156.114 E0.0002
G1 X187.835 Y156.703 E0.0690
G1 X187.838 Y156.704 E0.0002
G1 X187.978 Y156.774 E0.0076
G1 X187.981 Y156.775 E0.0002
G1 X189.014 Y157.330 E0.0575
G1 X189.017 Y157.332 E0.0002
G1 X189.148 Y157.407 E0.0074
G1 X189.150 Y157.408 E0.0002
G1 X190.157 Y158.028 E0.0579
G1 X190.160 Y158.030 E0.0002
G1 X190.291 Y158.116 E0.0077
G1 X190.294 Y158.118 E0.0002
G1 X191.429 Y158.916 E0.0680
G1 X191.432 Y158.918 E0.0002
G1 X191.567 Y159.019 E0.0082
G1 X191.569 Y159.022 E0.0002
G1 X192.568 Y159.827 E0.0629
G1 X192.571 Y159.829 E0.0002
G1 X192.687 Y159.929 E0.0075
G1 X192.689 Y159.931 E0.0002
G1 X193.576 Y160.738 E0.0587
G1 X193.578 Y160.740 E0.0002
G1 X193.690 Y160.848 E0.0076
G1 X193.692 Y160.850 E0.0002
G1 X194.587 Y161.770 E0.0628
G1 X194.589 Y161.772 E0.0002
G1 X194.697 Y161.890 E0.0078
G1 X194.699 Y161.893 E0.0002
G1 X195.535 Y162.866 E0.0629
G1 X195.537 Y162.869 E0.0002
G1 X195.637 Y162.994 E0.0078
G1 X195.640 Y162.996 E0.0002
G1 X196.410 Y164.017 E0.0627
G1 X196.412 Y164.020 E0.0002
G1 X196.502 Y164.146 E0.0076
G1 X196.504 Y164.149 E0.0002
G1 X197.175 Y165.160 E0.0595
G1 X197.177 Y165.163 E0.0002
G1 X197.259 Y165.294 E0.0076
G1 X197.261 Y165.297 E0.0002
G1 X197.903 Y166.405 E0.0627
G1 X197.905 Y166.408 E0.0002
G1 X197.981 Y166.548 E0.0078
G1 X197.982 Y166.551 E0.0002
G1 X198.555 Y167.697 E0.0628
G1 X198.557 Y167.701 E0.0002
G1 X198.623 Y167.845 E0.0078
G1 X198.625 Y167.849 E0.0002
G1 X199.124 Y169.026 E0.0626
G1 X199.125 Y169.029 E0.0002
G1 X199.182 Y169.175 E0.0077
G1 X199.183 Y169.178 E0.0002
G1 X199.591 Y170.332 E0.0599
G1 X199.592 Y170.335 E0.0002
G1 X199.639 Y170.482 E0.0076
G1 X199.640 Y170.485 E0.0002
G1 X199.993 Y171.715 E0.0627
G1 X199.994 Y171.719 E0.0002
G1 X200.034 Y171.877 E0.0080
G1 X200.035 Y171.881 E0.0002
G1 X200.319 Y173.178 E0.0650
G1 X200.320 Y173.181 E0.0002
G1 X200.349 Y173.336 E0.0077
G1 X200.349 Y173.340 E0.0002
G1 X200.538 Y174.556 E0.0603
G1 X200.538 Y174.559 E0.0002
G1 X200.557 Y174.714 E0.0077
G1 X200.558 Y174.718 E0.0002
G1 X200.676 Y175.989 E0.0625
G1 X200.676 Y175.992 E0.0002
G1 X200.686 Y176.150 E0.0077
G1 X200.686 Y176.153 E0.0002
G1 X200.789 Y179.500 E0.1640
G1 X200.756 Y179.585 E0.0045
G1 X198.849 Y181.552 E0.1342
G1 X198.605 Y182.667 E0.0559
G1 X198.604 Y182.670 E0.0001
G1 X198.573 Y182.797 E0.0064
G1 X198.572 Y182.800 E0.0001
G1 X198.275 Y183.890 E0.0553
G1 X198.274 Y183.893 E0.0001
G1 X198.236 Y184.018 E0.0064
G1 X198.235 Y184.021 E0.0001
G1 X197.915 Y184.994 E0.0502
G1 X197.914 Y184.998 E0.0002
G1 X197.849 Y185.173 E0.0091
G1 X197.848 Y185.176 E0.0002
G1 X197.187 Y186.781 E0.0850
G1 X197.186 Y186.784 E0.0002
G1 X197.126 Y186.917 E0.0071
G1 X197.125 Y186.920 E0.0002
G1 X196.803 Y187.590 E0.0364
G1 X196.801 Y187.593 E0.0002
G1 X196.735 Y187.722 E0.0071
G1 X196.734 Y187.725 E0.0002
G1 X196.172 Y188.742 E0.0569
G1 X196.171 Y188.744 E0.0001
G1 X196.107 Y188.854 E0.0062
G1 X196.105 Y188.856 E0.0001
G1 X195.521 Y189.801 E0.0544
G1 X195.519 Y189.804 E0.0002
G1 X195.431 Y189.936 E0.0078
G1 X195.429 Y189.939 E0.0002
G1 X194.642 Y191.052 E0.0668
G1 X194.640 Y191.054 E0.0002
G1 X194.544 Y191.182 E0.0078
G1 X194.542 Y191.185 E0.0002
G1 X193.911 Y191.967 E0.0492
G1 X193.909 Y191.970 E0.0002
G1 X193.813 Y192.082 E0.0072
G1 X193.811 Y192.084 E0.0002
G1 X193.033 Y192.943 E0.0568
G1 X193.031 Y192.946 E0.0001
G1 X192.936 Y193.045 E0.0067
G1 X192.934 Y193.047 E0.0001
G1 X192.068 Y193.905 E0.0597
G1 X192.066 Y193.907 E0.0001
G1 X191.972 Y193.996 E0.0063
G1 X191.970 Y193.998 E0.0001
G1 X191.096 Y194.781 E0.0575
G1 X191.093 Y194.784 E0.0002
G1 X190.969 Y194.888 E0.0079
G1 X190.966 Y194.890 E0.0002
G1 X190.098 Y195.574 E0.0542
G1 X190.095 Y195.576 E0.0002
G1 X189.981 Y195.662 E0.0070
G1 X189.978 Y195.664 E0.0002
G1 X189.024 Y196.332 E0.0571
G1 X189.022 Y196.334 E0.0001
G1 X188.913 Y196.406 E0.0064
G1 X188.910 Y196.408 E0.0001
G1 X187.845 Y197.076 E0.0616
G1 X187.843 Y197.077 E0.0001
G1 X187.737 Y197.140 E0.0060
G1 X187.735 Y197.141 E0.0001
G1 X186.796 Y197.670 E0.0528
G1 X186.793 Y197.671 E0.0002
G1 X186.653 Y197.745 E0.0077
G1 X186.650 Y197.746 E0.0002
G1 X185.562 Y198.272 E0.0592
G1 X185.559 Y198.274 E0.0002
G1 X185.398 Y198.345 E0.0086
G1 X185.395 Y198.346 E0.0002
G1 X183.275 Y199.198 E0.1119
G1 X183.271 Y199.199 E0.0002
G1 X183.092 Y199.264 E0.0093
G1 X183.088 Y199.265 E0.0002
G1 X180.917 Y199.955 E0.1116
G1 X180.469 Y200.250 E0.0263
G1 X180.440 Y200.264 E0.0016
G1 X179.038 Y200.694 E0.0718
G1 X179.007 Y200.699 E0.0016
G1 X177.165 Y200.722 E0.0902
G1 X177.162 Y200.722 E0.0002
G1 X176.997 Y200.719 E0.0081
G1 X176.993 Y200.719 E0.0002
G1 X175.608 Y200.648 E0.0680
G1 X175.604 Y200.647 E0.0002
G1 X175.435 Y200.633 E0.0083
G1 X175.431 Y200.633 E0.0002
G1 X174.106 Y200.476 E0.0654
G1 X174.103 Y200.475 E0.0002
G1 X173.949 Y200.452 E0.0076
G1 X173.946 Y200.452 E0.0002
G1 X172.868 Y200.257 E0.0536
G1 X172.865 Y200.256 E0.0002
G1 X172.714 Y200.224 E0.0076
G1 X172.711 Y200.224 E0.0002
G1 X171.240 Y199.865 E0.0742
G1 X171.236 Y199.864 E0.0002
G1 X171.063 Y199.815 E0.0088
G1 X171.059 Y199.814 E0.0002
G1 X169.821 Y199.418 E0.0637
G1 X169.817 Y199.417 E0.0002
G1 X169.666 Y199.364 E0.0079
G1 X169.663 Y199.362 E0.0002
G1 X168.470 Y198.897 E0.0627
G1 X168.467 Y198.896 E0.0002
G1 X168.330 Y198.837 E0.0073
G1 X168.327 Y198.836 E0.0002
G1 X167.271 Y198.351 E0.0569
G1 X167.268 Y198.350 E0.0002
G1 X167.130 Y198.282 E0.0075
G1 X167.127 Y198.280 E0.0002
G1 X165.990 Y197.672 E0.0632
G1 X165.987 Y197.671 E0.0002
G1 X165.848 Y197.591 E0.0079
G1 X165.845 Y197.589 E0.0002
G1 X164.748 Y196.911 E0.0631
G1 X164.745 Y196.909 E0.0002
G1 X164.612 Y196.821 E0.0078
G1 X164.609 Y196.819 E0.0002
G1 X163.563 Y196.078 E0.0628
G1 X163.560 Y196.076 E0.0002
G1 X163.438 Y195.984 E0.0075
G1 X163.435 Y195.982 E0.0002
G1 X162.504 Y195.235 E0.0585
G1 X162.502 Y195.233 E0.0002
G1 X162.384 Y195.133 E0.0075
G1 X162.382 Y195.131 E0.0002
G1 X161.430 Y194.268 E0.0629
G1 X161.427 Y194.265 E0.0002
G1 X161.312 Y194.154 E0.0078
G1 X161.310 Y194.152 E0.0002
G1 X160.413 Y193.230 E0.0630
G1 X160.411 Y193.228 E0.0002
G1 X160.303 Y193.110 E0.0078
G1 X160.301 Y193.107 E0.0002
G1 X159.465 Y192.133 E0.0629
G1 X159.463 Y192.131 E0.0002
G1 X159.363 Y192.006 E0.0078
G1 X159.360 Y192.004 E0.0002
G1 X158.590 Y190.983 E0.0627
G1 X158.588 Y190.980 E0.0002
G1 X158.498 Y190.854 E0.0076
G1 X158.496 Y190.851 E0.0002
G1 X157.825 Y189.840 E0.0595
G1 X157.823 Y189.837 E0.0002
G1 X157.741 Y189.706 E0.0076
G1 X157.739 Y189.703 E0.0002
G1 X157.097 Y188.595 E0.0627
G1 X157.095 Y188.592 E0.0002
G1 X157.019 Y188.452 E0.0078
G1 X157.018 Y188.449 E0.0002
G1 X156.445 Y187.303 E0.0628
G1 X156.443 Y187.299 E0.0002
G1 X156.377 Y187.155 E0.0078
G1 X156.375 Y187.151 E0.0002
