; G-Code generated by Simplify3D(R) Version 4.0.1
; Mar 22, 2023 at 1:49:41 PM
; Settings Summary
;   processName,Process1
;   applyToModels,WheelFitTest
;   profileName,F410_0.4C_PLA (modified)
;   profileVersion,2022-03-09 09:51:28
;   baseProfile,F400_PLA
;   printMaterial,
;   printQuality,Standard
;   printExtruders,
;   extruderName,Primary Extruder
;   extruderToolheadNumber,0
;   extruderDiameter,0.4
;   extruderAutoWidth,0
;   extruderWidth,0.45
;   extrusionMultiplier,1
;   extruderUseRetract,1
;   extruderRetractionDistance,4.25
;   extruderExtraRestartDistance,0.05
;   extruderRetractionZLift,0
;   extruderRetractionSpeed,24000
;   extruderUseCoasting,0
;   extruderCoastingDistance,0.5
;   extruderUseWipe,0
;   extruderWipeDistance,5
;   primaryExtruder,0
;   layerHeight,0.25
;   topSolidLayers,4
;   bottomSolidLayers,4
;   perimeterOutlines,3
;   printPerimetersInsideOut,0
;   startPointOption,3
;   startPointOriginX,0
;   startPointOriginY,360
;   sequentialIslands,0
;   spiralVaseMode,0
;   firstLayerHeightPercentage,100
;   firstLayerWidthPercentage,100
;   firstLayerUnderspeed,0.4
;   useRaft,0
;   raftExtruder,0
;   raftTopLayers,2
;   raftBaseLayers,0
;   raftOffset,4
;   raftSeparationDistance,0.15
;   raftTopInfill,100
;   aboveRaftSpeedMultiplier,0.3
;   useSkirt,1
;   skirtExtruder,0
;   skirtLayers,1
;   skirtOutlines,1
;   skirtOffset,5
;   usePrimePillar,0
;   primePillarExtruder,999
;   primePillarWidth,12
;   primePillarLocation,7
;   primePillarSpeedMultiplier,1
;   useOozeShield,0
;   oozeShieldExtruder,999
;   oozeShieldOffset,2
;   oozeShieldOutlines,1
;   oozeShieldSidewallShape,1
;   oozeShieldSidewallAngle,30
;   oozeShieldSpeedMultiplier,1
;   infillExtruder,0
;   internalInfillPattern,Rectilinear
;   externalInfillPattern,Rectilinear
;   infillPercentage,25
;   outlineOverlapPercentage,20
;   infillExtrusionWidthPercentage,100
;   minInfillLength,5
;   infillLayerInterval,1
;   internalInfillAngles,45,-45
;   overlapInternalInfillAngles,0
;   externalInfillAngles,45,-45
;   generateSupport,0
;   supportExtruder,0
;   supportInfillPercentage,30
;   supportExtraInflation,0.5
;   supportBaseLayers,0
;   denseSupportExtruder,0
;   denseSupportLayers,0
;   denseSupportInfillPercentage,70
;   supportLayerInterval,1
;   supportHorizontalPartOffset,0.35
;   supportUpperSeparationLayers,1
;   supportLowerSeparationLayers,1
;   supportType,0
;   supportGridSpacing,2
;   maxOverhangAngle,45
;   supportAngles,45
;   temperatureName,Primary Extruder,Heated Bed
;   temperatureNumber,0,2
;   temperatureSetpointCount,1,1
;   temperatureSetpointLayers,1,1
;   temperatureSetpointTemperatures,230,45
;   temperatureStabilizeAtStartup,0,0
;   temperatureHeatedBed,0,1
;   temperatureRelayBetweenLayers,0,0
;   temperatureRelayBetweenLoops,0,0
;   fanLayers,1,3,4,5
;   fanSpeeds,0,25,50,100
;   blipFanToFullPower,0
;   adjustSpeedForCooling,1
;   minSpeedLayerTime,5
;   minCoolingSpeedSlowdown,30
;   increaseFanForCooling,1
;   minFanLayerTime,13
;   maxCoolingFanSpeed,100
;   increaseFanForBridging,1
;   bridgingFanSpeed,100
;   use5D,1
;   relativeEdistances,1
;   allowEaxisZeroing,1
;   independentExtruderAxes,0
;   includeM10123,0
;   stickySupport,1
;   applyToolheadOffsets,0
;   gcodeXoffset,0
;   gcodeYoffset,0
;   gcodeZoffset,0
;   overrideMachineDefinition,1
;   machineTypeOverride,0
;   strokeXoverride,355
;   strokeYoverride,355
;   strokeZoverride,315
;   originOffsetXoverride,0
;   originOffsetYoverride,0
;   originOffsetZoverride,0
;   homeXdirOverride,1
;   homeYdirOverride,-1
;   homeZdirOverride,1
;   flipXoverride,1
;   flipYoverride,-1
;   flipZoverride,1
;   toolheadOffsets,0,0|0,0|0,0|0,0|0,0|0,0
;   overrideFirmwareConfiguration,1
;   firmwareTypeOverride,RepRap (Marlin/Repetier/Sprinter)
;   GPXconfigOverride,r2
;   baudRateOverride,115200
;   overridePrinterModels,0
;   printerModelsOverride
;   startingGcode,M104 S0 ;cancel S3D set temp,G21  ; set units to mm,G90  ; use absolute coordinates,T0  ; select tool 0,G92 E0.0  ; reset e count,M220 S100 ; reset speed multiplier,M140 S[bed2_temperature]  ; set bed temp and do not wait,G32  ; probe bed,M190 S[bed2_temperature]  ; set bed temperature and wait,M109 S[extruder0_temperature]  ; set print head temperature and wait,; === pause for heating ===,; reset filament monitor,M42 P63 S0,G4 P100,G4 P50,M42 P63 S1,;,G1 Z10.0 F2000  ; move up,G1 E30.0 F500  ; prime extruder,G1 X20 Y15 F9000  ; move back,G1 Z0 F1000  ; move down to begin wipe,G1 X150 E4.0 F10000  ; wipe print head (extrude material while we do this),G92 E0.0  ; reset e count
;   layerChangeGcode,
;   retractionGcode,
;   toolChangeGcode,
;   endingGcode,G91  ;relative positioning,G1 E-5.00 F1000  ;retract 5mm of filament,G1 Z+1.00 X-20.0 Y+20.0 F10000  ;short quick move to disengage from print,G90  ;absolute positioning,G1 X0.0 Y350.0 F9000  ; move head to back left corner,G91  ; relative positioning,G1 E-5.00 F500  ;retract additional filament to prevent oozing,G90 ;absolute positioning,M104 S0  ;turn off hotend,M140 S0  ;turn off heatbed,; Reset filament monitor,M42 P63 S0,G4 P100,G4 P50,M42 P63 S1,;,G1 Z315 F1000 ;move print bed down to idle position,M106 S0  ; shut off blower,M84  ;motors off,M561  ;clear bed probe transformation
;   exportFileFormat,gcode
;   celebration,0
;   celebrationSong,Random Song
;   postProcessing,
;   defaultSpeed,6000
;   outlineUnderspeed,0.6
;   solidInfillUnderspeed,0.7
;   supportUnderspeed,1
;   rapidXYspeed,21000
;   rapidZspeed,10000
;   minBridgingArea,50
;   bridgingExtraInflation,0.5
;   bridgingExtrusionMultiplier,1
;   bridgingSpeedMultiplier,0.6
;   useFixedBridgingAngle,0
;   fixedBridgingAngle,0
;   applyBridgingToPerimeters,0
;   filamentDiameters,1.71|1.71|1.71|1.71|1.71|1.71
;   filamentPricesPerKg,46|46|46|46|46|46
;   filamentDensities,1.25|1.25|1.25|1.25|1.25|1.25
;   useMinPrintHeight,0
;   minPrintHeight,13
;   useMaxPrintHeight,0
;   maxPrintHeight,13
;   useDiaphragm,0
;   diaphragmLayerInterval,20
;   robustSlicing,1
;   mergeAllIntoSolid,0
;   onlyRetractWhenCrossingOutline,1
;   retractBetweenLayers,0
;   useRetractionMinTravel,0
;   retractionMinTravel,1
;   retractWhileWiping,0
;   onlyWipeOutlines,1
;   avoidCrossingOutline,0
;   maxMovementDetourFactor,3
;   toolChangeRetractionDistance,0
;   toolChangeExtraRestartDistance,0
;   toolChangeRetractionSpeed,360
;   externalThinWallType,1
;   internalThinWallType,1
;   thinWallAllowedOverlapPercentage,50
;   singleExtrusionMinLength,1
;   singleExtrusionMinPrintingWidthPercentage,50
;   singleExtrusionMaxPrintingWidthPercentage,200
;   singleExtrusionEndpointExtension,0.2
;   horizontalSizeCompensation,0
G90
M83
M106 S0
M104 S0 ;cancel S3D set temp
G21  ; set units to mm
G90  ; use absolute coordinates
T0  ; select tool 0
G92 E0.0  ; reset e count
M220 S100 ; reset speed multiplier
M140 S45  ; set bed temp and do not wait
G32  ; probe bed
M190 S45  ; set bed temperature and wait
M109 S230  ; set print head temperature and wait
; === pause for heating ===
; reset filament monitor
M42 P63 S0
G4 P100
G4 P50
M42 P63 S1
;
G1 Z10.0 F2000  ; move up
G1 E30.0 F500  ; prime extruder
G1 X20 Y15 F9000  ; move back
G1 Z0 F1000  ; move down to begin wipe
G1 X150 E4.0 F10000  ; wipe print head (extrude material while we do this)
G92 E0.0  ; reset e count
G1 E-4.2500 F24000
G1 Z0.250 F10000
; process Process1
; layer 1, Z = 0.250
T0
; tool H0.250 W0.450
; skirt
G1 X168.039 Y168.258 F21000
G1 E4.3000 F7200
G1 X168.258 Y168.039 E0.0151 F2400
G1 X168.263 Y168.035 E0.0003
G1 X169.189 Y167.214 E0.0606
G1 X169.193 Y167.210 E0.0003
G1 X169.376 Y167.063 E0.0115
G1 X169.380 Y167.059 E0.0003
G1 X169.966 Y166.630 E0.0356
G1 X169.970 Y166.627 E0.0002
G1 X170.161 Y166.500 E0.0112
G1 X170.165 Y166.497 E0.0002
G1 X171.213 Y165.864 E0.0599
G1 X171.218 Y165.861 E0.0003
G1 X171.491 Y165.718 E0.0151
G1 X171.497 Y165.715 E0.0003
G1 X172.624 Y165.208 E0.0605
G1 X172.629 Y165.206 E0.0002
G1 X172.844 Y165.120 E0.0113
G1 X172.849 Y165.118 E0.0002
G1 X173.525 Y164.885 E0.0350
G1 X173.530 Y164.884 E0.0002
G1 X173.752 Y164.818 E0.0114
G1 X173.757 Y164.817 E0.0003
G1 X174.920 Y164.530 E0.0587
G1 X174.925 Y164.529 E0.0002
G1 X175.152 Y164.484 E0.0113
G1 X175.157 Y164.483 E0.0003
G1 X175.864 Y164.375 E0.0350
G1 X175.869 Y164.375 E0.0002
G1 X176.100 Y164.350 E0.0113
G1 X176.105 Y164.350 E0.0003
G1 X177.300 Y164.278 E0.0587
G1 X177.305 Y164.277 E0.0003
G1 X177.537 Y164.274 E0.0114
G1 X177.542 Y164.274 E0.0002
G1 X178.218 Y164.294 E0.0331
G1 X178.221 Y164.294 E0.0002
G1 X178.376 Y164.304 E0.0076
G1 X178.379 Y164.304 E0.0002
G1 X179.052 Y164.365 E0.0331
G1 X179.058 Y164.366 E0.0002
G1 X179.287 Y164.397 E0.0113
G1 X179.292 Y164.398 E0.0003
G1 X180.470 Y164.614 E0.0587
G1 X180.475 Y164.615 E0.0003
G1 X180.701 Y164.667 E0.0113
G1 X180.706 Y164.668 E0.0002
G1 X181.395 Y164.860 E0.0350
G1 X181.400 Y164.862 E0.0002
G1 X181.620 Y164.934 E0.0114
G1 X181.625 Y164.936 E0.0002
G1 X182.781 Y165.374 E0.0606
G1 X182.787 Y165.377 E0.0003
G1 X183.069 Y165.504 E0.0151
G1 X183.075 Y165.506 E0.0003
G1 X184.169 Y166.081 E0.0606
G1 X184.174 Y166.084 E0.0002
G1 X184.374 Y166.200 E0.0114
G1 X184.378 Y166.203 E0.0002
G1 X184.946 Y166.570 E0.0331
G1 X184.949 Y166.572 E0.0002
G1 X185.076 Y166.660 E0.0076
G1 X185.079 Y166.662 E0.0002
G1 X185.624 Y167.063 E0.0331
G1 X185.628 Y167.066 E0.0002
G1 X185.808 Y167.211 E0.0113
G1 X185.812 Y167.215 E0.0003
G1 X186.737 Y168.035 E0.0606
G1 X186.742 Y168.039 E0.0003
G1 X186.961 Y168.258 E0.0151
G1 X186.965 Y168.263 E0.0003
G1 X187.811 Y169.217 E0.0625
G1 X187.815 Y169.222 E0.0003
G1 X188.006 Y169.465 E0.0151
G1 X188.010 Y169.471 E0.0003
G1 X188.712 Y170.488 E0.0606
G1 X188.715 Y170.493 E0.0003
G1 X188.838 Y170.689 E0.0114
G1 X188.840 Y170.694 E0.0002
G1 X189.192 Y171.316 E0.0350
G1 X189.194 Y171.321 E0.0002
G1 X189.299 Y171.528 E0.0113
G1 X189.301 Y171.532 E0.0002
G1 X189.792 Y172.624 E0.0587
G1 X189.794 Y172.629 E0.0002
G1 X189.880 Y172.844 E0.0113
G1 X189.882 Y172.849 E0.0002
G1 X190.115 Y173.525 E0.0350
G1 X190.116 Y173.530 E0.0003
G1 X190.182 Y173.752 E0.0114
G1 X190.183 Y173.757 E0.0002
G1 X190.470 Y174.920 E0.0587
G1 X190.471 Y174.925 E0.0002
G1 X190.516 Y175.152 E0.0113
G1 X190.517 Y175.157 E0.0002
G1 X190.625 Y175.864 E0.0350
G1 X190.625 Y175.869 E0.0002
G1 X190.650 Y176.099 E0.0113
G1 X190.650 Y176.105 E0.0002
G1 X190.725 Y177.339 E0.0606
G1 X190.725 Y177.345 E0.0003
G1 X190.725 Y177.655 E0.0151
G1 X190.725 Y177.661 E0.0003
G1 X190.650 Y178.895 E0.0606
G1 X190.650 Y178.901 E0.0002
G1 X190.625 Y179.131 E0.0113
G1 X190.625 Y179.136 E0.0002
G1 X190.517 Y179.843 E0.0350
G1 X190.516 Y179.848 E0.0002
G1 X190.471 Y180.075 E0.0113
G1 X190.470 Y180.080 E0.0002
G1 X190.183 Y181.243 E0.0587
G1 X190.182 Y181.248 E0.0002
G1 X190.116 Y181.470 E0.0114
G1 X190.115 Y181.475 E0.0003
G1 X189.882 Y182.151 E0.0350
G1 X189.880 Y182.156 E0.0002
G1 X189.794 Y182.371 E0.0113
G1 X189.792 Y182.376 E0.0002
G1 X189.301 Y183.468 E0.0587
G1 X189.299 Y183.472 E0.0002
G1 X189.194 Y183.679 E0.0113
G1 X189.192 Y183.684 E0.0002
G1 X188.840 Y184.306 E0.0350
G1 X188.838 Y184.311 E0.0002
G1 X188.715 Y184.507 E0.0114
G1 X188.712 Y184.511 E0.0003
G1 X188.010 Y185.529 E0.0606
G1 X188.006 Y185.534 E0.0003
G1 X187.815 Y185.778 E0.0151
G1 X187.811 Y185.783 E0.0003
G1 X186.965 Y186.737 E0.0625
G1 X186.961 Y186.742 E0.0003
G1 X186.742 Y186.961 E0.0151
G1 X186.737 Y186.965 E0.0003
G1 X185.783 Y187.811 E0.0625
G1 X185.778 Y187.815 E0.0003
G1 X185.534 Y188.006 E0.0151
G1 X185.529 Y188.010 E0.0003
G1 X184.511 Y188.712 E0.0606
G1 X184.507 Y188.715 E0.0003
G1 X184.311 Y188.838 E0.0114
G1 X184.306 Y188.840 E0.0002
G1 X183.684 Y189.192 E0.0350
G1 X183.679 Y189.194 E0.0002
G1 X183.472 Y189.299 E0.0113
G1 X183.468 Y189.301 E0.0002
G1 X182.376 Y189.792 E0.0587
G1 X182.371 Y189.794 E0.0002
G1 X182.156 Y189.880 E0.0113
G1 X182.151 Y189.882 E0.0002
G1 X181.475 Y190.115 E0.0350
G1 X181.470 Y190.116 E0.0003
G1 X181.248 Y190.182 E0.0114
G1 X181.243 Y190.183 E0.0002
G1 X180.080 Y190.470 E0.0587
G1 X180.075 Y190.471 E0.0002
G1 X179.848 Y190.516 E0.0113
G1 X179.843 Y190.517 E0.0002
G1 X179.136 Y190.625 E0.0350
G1 X179.131 Y190.625 E0.0002
G1 X178.901 Y190.650 E0.0113
G1 X178.895 Y190.650 E0.0002
G1 X177.661 Y190.725 E0.0606
G1 X177.655 Y190.725 E0.0003
G1 X177.345 Y190.725 E0.0151
G1 X177.339 Y190.725 E0.0003
G1 X176.105 Y190.650 E0.0606
G1 X176.099 Y190.650 E0.0002
G1 X175.869 Y190.625 E0.0113
G1 X175.864 Y190.625 E0.0002
G1 X175.157 Y190.517 E0.0350
G1 X175.152 Y190.516 E0.0002
G1 X174.925 Y190.471 E0.0113
G1 X174.920 Y190.470 E0.0002
G1 X173.757 Y190.183 E0.0587
G1 X173.752 Y190.182 E0.0002
G1 X173.530 Y190.116 E0.0114
G1 X173.525 Y190.115 E0.0003
G1 X172.849 Y189.882 E0.0350
G1 X172.844 Y189.880 E0.0002
G1 X172.629 Y189.794 E0.0113
G1 X172.624 Y189.792 E0.0002
G1 X171.532 Y189.301 E0.0587
G1 X171.528 Y189.299 E0.0002
G1 X171.321 Y189.194 E0.0113
G1 X171.316 Y189.192 E0.0002
G1 X170.694 Y188.840 E0.0350
G1 X170.689 Y188.838 E0.0002
G1 X170.493 Y188.715 E0.0114
G1 X170.488 Y188.712 E0.0003
G1 X169.471 Y188.010 E0.0606
G1 X169.465 Y188.006 E0.0003
G1 X169.222 Y187.815 E0.0151
G1 X169.217 Y187.811 E0.0003
G1 X168.263 Y186.965 E0.0625
G1 X168.258 Y186.961 E0.0003
G1 X168.039 Y186.742 E0.0151
G1 X168.035 Y186.737 E0.0003
G1 X167.189 Y185.783 E0.0625
G1 X167.185 Y185.778 E0.0003
G1 X166.994 Y185.534 E0.0151
G1 X166.990 Y185.529 E0.0003
G1 X166.288 Y184.511 E0.0606
G1 X166.285 Y184.507 E0.0003
G1 X166.162 Y184.311 E0.0114
G1 X166.160 Y184.306 E0.0002
G1 X165.808 Y183.684 E0.0350
G1 X165.806 Y183.679 E0.0002
G1 X165.701 Y183.472 E0.0113
G1 X165.699 Y183.468 E0.0003
G1 X165.208 Y182.376 E0.0587
G1 X165.206 Y182.371 E0.0002
G1 X165.120 Y182.156 E0.0113
G1 X165.118 Y182.151 E0.0002
G1 X164.885 Y181.475 E0.0350
G1 X164.884 Y181.470 E0.0002
G1 X164.818 Y181.248 E0.0114
G1 X164.817 Y181.243 E0.0003
G1 X164.530 Y180.080 E0.0587
G1 X164.529 Y180.075 E0.0002
G1 X164.484 Y179.848 E0.0113
G1 X164.483 Y179.843 E0.0003
G1 X164.375 Y179.136 E0.0350
G1 X164.375 Y179.131 E0.0002
G1 X164.350 Y178.900 E0.0113
G1 X164.350 Y178.895 E0.0003
G1 X164.275 Y177.661 E0.0606
G1 X164.275 Y177.654 E0.0003
G1 X164.275 Y177.346 E0.0151
G1 X164.275 Y177.339 E0.0003
G1 X164.350 Y176.105 E0.0606
G1 X164.350 Y176.100 E0.0003
G1 X164.375 Y175.869 E0.0113
G1 X164.375 Y175.864 E0.0002
G1 X164.483 Y175.157 E0.0350
G1 X164.484 Y175.152 E0.0003
G1 X164.529 Y174.925 E0.0113
G1 X164.530 Y174.920 E0.0002
G1 X164.817 Y173.757 E0.0587
G1 X164.818 Y173.752 E0.0003
G1 X164.884 Y173.530 E0.0114
G1 X164.885 Y173.525 E0.0002
G1 X165.118 Y172.849 E0.0350
G1 X165.120 Y172.844 E0.0002
G1 X165.206 Y172.629 E0.0113
G1 X165.208 Y172.624 E0.0002
G1 X165.699 Y171.532 E0.0587
G1 X165.701 Y171.528 E0.0003
G1 X165.806 Y171.321 E0.0113
G1 X165.808 Y171.316 E0.0002
G1 X166.160 Y170.694 E0.0350
G1 X166.162 Y170.689 E0.0002
G1 X166.285 Y170.493 E0.0114
G1 X166.288 Y170.489 E0.0003
G1 X166.990 Y169.471 E0.0606
G1 X166.994 Y169.465 E0.0003
G1 X167.185 Y169.222 E0.0151
G1 X167.189 Y169.217 E0.0003
G1 X168.035 Y168.263 E0.0625
G1 X168.039 Y168.258 E0.0003
G1 E-4.2500 F24000
; outer perimeter
G1 X172.002 Y182.998 F21000
G1 E4.3000 F24000
G1 X171.680 Y182.656 E0.0230 F1440
G1 X171.380 Y182.295 E0.0230
G1 X171.101 Y181.917 E0.0230
G1 X170.846 Y181.522 E0.0230
G1 X170.616 Y181.113 E0.0230
G1 X170.410 Y180.691 E0.0230
G1 X170.230 Y180.257 E0.0230
G1 X170.077 Y179.813 E0.0230
G1 X169.951 Y179.361 E0.0230
G1 X169.852 Y178.902 E0.0230
G1 X169.782 Y178.437 E0.0230
G1 X169.739 Y177.969 E0.0230
G1 X169.725 Y177.500 E0.0230
G1 X169.739 Y177.031 E0.0230
G1 X169.782 Y176.563 E0.0230
G1 X169.852 Y176.098 E0.0230
G1 X169.951 Y175.639 E0.0230
G1 X170.077 Y175.187 E0.0230
G1 X170.230 Y174.743 E0.0230
G1 X170.410 Y174.309 E0.0230
G1 X170.616 Y173.887 E0.0230
G1 X170.846 Y173.478 E0.0230
G1 X171.101 Y173.083 E0.0230
G1 X171.380 Y172.705 E0.0230
G1 X171.680 Y172.344 E0.0230
G1 X172.002 Y172.002 E0.0230
G1 X172.344 Y171.680 E0.0230
G1 X172.705 Y171.380 E0.0230
G1 X173.093 Y171.095 E0.0235
G1 X173.478 Y170.846 E0.0225
