; G-Code generated by Simplify3D(R) Version 4.0.1
; Mar 21, 2023 at 1:57:29 PM
; Settings Summary
;   processName,Process1
;   applyToModels,WheelMoldA,WheelMoldB
;   profileName,F410_0.4C_PLA (modified)
;   profileVersion,2022-03-09 09:51:28
;   baseProfile,F400_PLA
;   printMaterial,
;   printQuality,Standard
;   printExtruders,
;   extruderName,Primary Extruder
;   extruderToolheadNumber,0
;   extruderDiameter,0.4
;   extruderAutoWidth,0
;   extruderWidth,0.45
;   extrusionMultiplier,1
;   extruderUseRetract,1
;   extruderRetractionDistance,4.25
;   extruderExtraRestartDistance,0.05
;   extruderRetractionZLift,0
;   extruderRetractionSpeed,24000
;   extruderUseCoasting,0
;   extruderCoastingDistance,0.5
;   extruderUseWipe,0
;   extruderWipeDistance,5
;   primaryExtruder,0
;   layerHeight,0.25
;   topSolidLayers,4
;   bottomSolidLayers,4
;   perimeterOutlines,3
;   printPerimetersInsideOut,0
;   startPointOption,3
;   startPointOriginX,0
;   startPointOriginY,360
;   sequentialIslands,0
;   spiralVaseMode,0
;   firstLayerHeightPercentage,100
;   firstLayerWidthPercentage,100
;   firstLayerUnderspeed,0.4
;   useRaft,0
;   raftExtruder,0
;   raftTopLayers,2
;   raftBaseLayers,0
;   raftOffset,4
;   raftSeparationDistance,0.15
;   raftTopInfill,100
;   aboveRaftSpeedMultiplier,0.3
;   useSkirt,1
;   skirtExtruder,0
;   skirtLayers,1
;   skirtOutlines,1
;   skirtOffset,5
;   usePrimePillar,0
;   primePillarExtruder,999
;   primePillarWidth,12
;   primePillarLocation,7
;   primePillarSpeedMultiplier,1
;   useOozeShield,0
;   oozeShieldExtruder,999
;   oozeShieldOffset,2
;   oozeShieldOutlines,1
;   oozeShieldSidewallShape,1
;   oozeShieldSidewallAngle,30
;   oozeShieldSpeedMultiplier,1
;   infillExtruder,0
;   internalInfillPattern,Rectilinear
;   externalInfillPattern,Rectilinear
;   infillPercentage,25
;   outlineOverlapPercentage,20
;   infillExtrusionWidthPercentage,100
;   minInfillLength,5
;   infillLayerInterval,1
;   internalInfillAngles,45,-45
;   overlapInternalInfillAngles,0
;   externalInfillAngles,45,-45
;   generateSupport,1
;   supportExtruder,0
;   supportInfillPercentage,30
;   supportExtraInflation,0.5
;   supportBaseLayers,0
;   denseSupportExtruder,0
;   denseSupportLayers,0
;   denseSupportInfillPercentage,70
;   supportLayerInterval,1
;   supportHorizontalPartOffset,0.35
;   supportUpperSeparationLayers,1
;   supportLowerSeparationLayers,1
;   supportType,0
;   supportGridSpacing,2
;   maxOverhangAngle,45
;   supportAngles,45
;   temperatureName,Primary Extruder,Heated Bed
;   temperatureNumber,0,2
;   temperatureSetpointCount,1,1
;   temperatureSetpointLayers,1,1
;   temperatureSetpointTemperatures,230,45
;   temperatureStabilizeAtStartup,0,0
;   temperatureHeatedBed,0,1
;   temperatureRelayBetweenLayers,0,0
;   temperatureRelayBetweenLoops,0,0
;   fanLayers,1,3,4,5
;   fanSpeeds,0,25,50,100
;   blipFanToFullPower,0
;   adjustSpeedForCooling,1
;   minSpeedLayerTime,5
;   minCoolingSpeedSlowdown,30
;   increaseFanForCooling,1
;   minFanLayerTime,13
;   maxCoolingFanSpeed,100
;   increaseFanForBridging,1
;   bridgingFanSpeed,100
;   use5D,1
;   relativeEdistances,1
;   allowEaxisZeroing,1
;   independentExtruderAxes,0
;   includeM10123,0
;   stickySupport,1
;   applyToolheadOffsets,0
;   gcodeXoffset,0
;   gcodeYoffset,0
;   gcodeZoffset,0
;   overrideMachineDefinition,1
;   machineTypeOverride,0
;   strokeXoverride,355
;   strokeYoverride,355
;   strokeZoverride,315
;   originOffsetXoverride,0
;   originOffsetYoverride,0
;   originOffsetZoverride,0
;   homeXdirOverride,1
;   homeYdirOverride,-1
;   homeZdirOverride,1
;   flipXoverride,1
;   flipYoverride,-1
;   flipZoverride,1
;   toolheadOffsets,0,0|0,0|0,0|0,0|0,0|0,0
;   overrideFirmwareConfiguration,1
;   firmwareTypeOverride,RepRap (Marlin/Repetier/Sprinter)
;   GPXconfigOverride,r2
;   baudRateOverride,115200
;   overridePrinterModels,0
;   printerModelsOverride
;   startingGcode,M104 S0 ;cancel S3D set temp,G21  ; set units to mm,G90  ; use absolute coordinates,T0  ; select tool 0,G92 E0.0  ; reset e count,M220 S100 ; reset speed multiplier,M140 S[bed2_temperature]  ; set bed temp and do not wait,G32  ; probe bed,M190 S[bed2_temperature]  ; set bed temperature and wait,M109 S[extruder0_temperature]  ; set print head temperature and wait,; === pause for heating ===,; reset filament monitor,M42 P63 S0,G4 P100,G4 P50,M42 P63 S1,;,G1 Z10.0 F2000  ; move up,G1 E30.0 F500  ; prime extruder,G1 X20 Y15 F9000  ; move back,G1 Z0 F1000  ; move down to begin wipe,G1 X150 E4.0 F10000  ; wipe print head (extrude material while we do this),G92 E0.0  ; reset e count
;   layerChangeGcode,
;   retractionGcode,
;   toolChangeGcode,
;   endingGcode,G91  ;relative positioning,G1 E-5.00 F1000  ;retract 5mm of filament,G1 Z+1.00 X-20.0 Y+20.0 F10000  ;short quick move to disengage from print,G90  ;absolute positioning,G1 X0.0 Y350.0 F9000  ; move head to back left corner,G91  ; relative positioning,G1 E-5.00 F500  ;retract additional filament to prevent oozing,G90 ;absolute positioning,M104 S0  ;turn off hotend,M140 S0  ;turn off heatbed,; Reset filament monitor,M42 P63 S0,G4 P100,G4 P50,M42 P63 S1,;,G1 Z315 F1000 ;move print bed down to idle position,M106 S0  ; shut off blower,M84  ;motors off,M561  ;clear bed probe transformation
;   exportFileFormat,gcode
;   celebration,0
;   celebrationSong,Random Song
;   postProcessing,
;   defaultSpeed,6000
;   outlineUnderspeed,0.6
;   solidInfillUnderspeed,0.7
;   supportUnderspeed,1
;   rapidXYspeed,21000
;   rapidZspeed,10000
;   minBridgingArea,50
;   bridgingExtraInflation,0.5
;   bridgingExtrusionMultiplier,1
;   bridgingSpeedMultiplier,0.6
;   useFixedBridgingAngle,0
;   fixedBridgingAngle,0
;   applyBridgingToPerimeters,0
;   filamentDiameters,1.71|1.71|1.71|1.71|1.71|1.71
;   filamentPricesPerKg,46|46|46|46|46|46
;   filamentDensities,1.25|1.25|1.25|1.25|1.25|1.25
;   useMinPrintHeight,0
;   minPrintHeight,13
;   useMaxPrintHeight,0
;   maxPrintHeight,13
;   useDiaphragm,0
;   diaphragmLayerInterval,20
;   robustSlicing,1
;   mergeAllIntoSolid,0
;   onlyRetractWhenCrossingOutline,1
;   retractBetweenLayers,0
;   useRetractionMinTravel,0
;   retractionMinTravel,1
;   retractWhileWiping,0
;   onlyWipeOutlines,1
;   avoidCrossingOutline,0
;   maxMovementDetourFactor,3
;   toolChangeRetractionDistance,0
;   toolChangeExtraRestartDistance,0
;   toolChangeRetractionSpeed,360
;   externalThinWallType,1
;   internalThinWallType,1
;   thinWallAllowedOverlapPercentage,50
;   singleExtrusionMinLength,1
;   singleExtrusionMinPrintingWidthPercentage,50
;   singleExtrusionMaxPrintingWidthPercentage,200
;   singleExtrusionEndpointExtension,0.2
;   horizontalSizeCompensation,0
G90
M83
M106 S0
M104 S0 ;cancel S3D set temp
G21  ; set units to mm
G90  ; use absolute coordinates
T0  ; select tool 0
G92 E0.0  ; reset e count
M220 S100 ; reset speed multiplier
M140 S45  ; set bed temp and do not wait
G32  ; probe bed
M190 S45  ; set bed temperature and wait
M109 S230  ; set print head temperature and wait
; === pause for heating ===
; reset filament monitor
M42 P63 S0
G4 P100
G4 P50
M42 P63 S1
;
G1 Z10.0 F2000  ; move up
G1 E30.0 F500  ; prime extruder
G1 X20 Y15 F9000  ; move back
G1 Z0 F1000  ; move down to begin wipe
G1 X150 E4.0 F10000  ; wipe print head (extrude material while we do this)
G92 E0.0  ; reset e count
G1 E-4.2500 F24000
G1 Z0.250 F10000
; process Process1
; layer 1, Z = 0.250
T0
; tool H0.250 W0.450
; skirt
G1 X157.196 Y155.394 F21000
G1 E4.3000 F7200
G1 X157.301 Y155.285 E0.0074 F2400
G1 X157.303 Y155.283 E0.0002
G1 X158.390 Y154.228 E0.0742
G1 X158.393 Y154.226 E0.0002
G1 X158.505 Y154.123 E0.0074
G1 X158.507 Y154.121 E0.0002
G1 X159.654 Y153.132 E0.0742
G1 X159.657 Y153.130 E0.0002
G1 X159.775 Y153.035 E0.0074
G1 X159.777 Y153.033 E0.0002
G1 X160.981 Y152.114 E0.0742
G1 X160.984 Y152.112 E0.0002
G1 X161.107 Y152.023 E0.0074
G1 X161.110 Y152.021 E0.0002
G1 X162.366 Y151.175 E0.0742
G1 X162.369 Y151.173 E0.0002
G1 X162.497 Y151.093 E0.0074
G1 X162.500 Y151.091 E0.0002
G1 X163.804 Y150.321 E0.0742
G1 X163.807 Y150.319 E0.0002
G1 X163.940 Y150.246 E0.0074
G1 X163.942 Y150.244 E0.0002
G1 X165.290 Y149.553 E0.0742
G1 X165.293 Y149.551 E0.0002
G1 X165.430 Y149.486 E0.0074
G1 X165.433 Y149.485 E0.0002
G1 X166.819 Y148.874 E0.0742
G1 X166.822 Y148.873 E0.0002
G1 X166.962 Y148.816 E0.0074
G1 X166.966 Y148.815 E0.0002
G1 X168.385 Y148.287 E0.0742
G1 X168.389 Y148.286 E0.0002
G1 X168.532 Y148.237 E0.0074
G1 X168.535 Y148.236 E0.0002
G1 X169.984 Y147.794 E0.0742
G1 X169.987 Y147.793 E0.0002
G1 X170.133 Y147.753 E0.0074
G1 X170.137 Y147.752 E0.0002
G1 X171.609 Y147.397 E0.0742
G1 X171.612 Y147.396 E0.0002
G1 X171.760 Y147.365 E0.0074
G1 X171.764 Y147.364 E0.0002
G1 X173.254 Y147.096 E0.0742
G1 X173.258 Y147.096 E0.0002
G1 X173.408 Y147.073 E0.0074
G1 X173.411 Y147.073 E0.0002
G1 X174.915 Y146.894 E0.0742
G1 X174.918 Y146.893 E0.0002
G1 X175.069 Y146.880 E0.0074
G1 X175.073 Y146.879 E0.0002
G1 X176.585 Y146.790 E0.0742
G1 X176.588 Y146.790 E0.0002
G1 X176.739 Y146.785 E0.0074
G1 X176.743 Y146.785 E0.0002
G1 X178.257 Y146.785 E0.0742
G1 X178.261 Y146.785 E0.0002
G1 X178.412 Y146.790 E0.0074
G1 X178.415 Y146.790 E0.0002
G1 X179.927 Y146.879 E0.0742
G1 X179.931 Y146.880 E0.0002
G1 X180.082 Y146.893 E0.0074
G1 X180.085 Y146.894 E0.0002
G1 X181.589 Y147.073 E0.0742
G1 X181.592 Y147.073 E0.0002
G1 X181.742 Y147.096 E0.0074
G1 X181.746 Y147.096 E0.0002
G1 X183.236 Y147.364 E0.0742
G1 X183.240 Y147.365 E0.0002
G1 X183.388 Y147.396 E0.0074
G1 X183.391 Y147.397 E0.0002
G1 X184.863 Y147.752 E0.0742
G1 X184.867 Y147.753 E0.0002
G1 X185.013 Y147.793 E0.0074
G1 X185.016 Y147.794 E0.0002
G1 X186.465 Y148.236 E0.0742
G1 X186.468 Y148.237 E0.0002
G1 X186.611 Y148.286 E0.0074
G1 X186.615 Y148.287 E0.0002
G1 X188.034 Y148.815 E0.0742
G1 X188.038 Y148.816 E0.0002
G1 X188.178 Y148.873 E0.0074
G1 X188.181 Y148.874 E0.0002
G1 X189.567 Y149.485 E0.0742
G1 X189.570 Y149.486 E0.0002
G1 X189.707 Y149.551 E0.0074
G1 X189.710 Y149.553 E0.0002
G1 X191.058 Y150.244 E0.0742
G1 X191.060 Y150.246 E0.0002
G1 X191.193 Y150.319 E0.0074
G1 X191.196 Y150.321 E0.0002
G1 X192.500 Y151.091 E0.0742
G1 X192.503 Y151.093 E0.0002
G1 X192.631 Y151.173 E0.0074
G1 X192.634 Y151.175 E0.0002
G1 X193.890 Y152.021 E0.0742
G1 X193.893 Y152.023 E0.0002
G1 X194.016 Y152.112 E0.0074
G1 X194.019 Y152.114 E0.0002
G1 X195.223 Y153.033 E0.0742
G1 X195.225 Y153.035 E0.0002
G1 X195.343 Y153.130 E0.0074
G1 X195.346 Y153.132 E0.0002
G1 X196.493 Y154.121 E0.0742
G1 X196.495 Y154.123 E0.0002
G1 X196.607 Y154.226 E0.0074
G1 X196.610 Y154.228 E0.0002
G1 X197.697 Y155.283 E0.0742
G1 X197.699 Y155.285 E0.0002
G1 X197.804 Y155.394 E0.0074
G1 X197.807 Y155.397 E0.0002
G1 X198.829 Y156.514 E0.0742
G1 X198.831 Y156.517 E0.0002
G1 X198.930 Y156.632 E0.0074
G1 X198.932 Y156.634 E0.0002
G1 X199.887 Y157.810 E0.0742
G1 X199.889 Y157.813 E0.0002
G1 X199.981 Y157.933 E0.0074
G1 X199.983 Y157.936 E0.0002
G1 X200.866 Y159.167 E0.0742
G1 X200.868 Y159.169 E0.0002
G1 X200.952 Y159.295 E0.0074
G1 X200.954 Y159.298 E0.0002
G1 X201.763 Y160.579 E0.0742
G1 X201.764 Y160.581 E0.0002
G1 X201.841 Y160.712 E0.0074
G1 X201.843 Y160.715 E0.0002
G1 X202.574 Y162.041 E0.0742
G1 X202.576 Y162.044 E0.0002
G1 X202.645 Y162.179 E0.0074
G1 X202.647 Y162.182 E0.0002
G1 X203.298 Y163.549 E0.0742
G1 X203.299 Y163.553 E0.0002
G1 X203.361 Y163.691 E0.0074
G1 X203.362 Y163.694 E0.0002
G1 X203.931 Y165.098 E0.0742
G1 X203.932 Y165.101 E0.0002
G1 X203.985 Y165.243 E0.0074
G1 X203.986 Y165.246 E0.0002
G1 X204.389 Y166.437 E0.0616
G1 X208.074 Y166.437 E0.1805
G1 X208.157 Y166.472 E0.0044
G1 X211.149 Y169.464 E0.2073
G1 X211.183 Y169.547 E0.0044
G1 X211.183 Y177.258 E0.3778
G1 X211.149 Y177.341 E0.0044
G1 X211.077 Y177.413 E0.0050
G1 X211.740 Y178.076 E0.0459
G1 X211.774 Y178.158 E0.0044
G1 X211.774 Y185.870 E0.3778
G1 X211.740 Y185.953 E0.0044
G1 X208.748 Y188.945 E0.2073
G1 X208.665 Y188.979 E0.0044
G1 X204.248 Y188.979 E0.2164
G1 X203.986 Y189.754 E0.0401
G1 X203.985 Y189.757 E0.0002
G1 X203.932 Y189.899 E0.0074
G1 X203.931 Y189.902 E0.0002
G1 X203.362 Y191.306 E0.0742
G1 X203.361 Y191.309 E0.0002
G1 X203.299 Y191.447 E0.0074
G1 X203.298 Y191.451 E0.0002
G1 X202.647 Y192.818 E0.0742
G1 X202.645 Y192.821 E0.0002
G1 X202.576 Y192.956 E0.0074
G1 X202.574 Y192.959 E0.0002
G1 X201.843 Y194.285 E0.0742
G1 X201.841 Y194.288 E0.0002
G1 X201.764 Y194.419 E0.0074
G1 X201.763 Y194.421 E0.0002
G1 X200.954 Y195.702 E0.0742
G1 X200.952 Y195.705 E0.0002
G1 X200.868 Y195.831 E0.0074
G1 X200.866 Y195.833 E0.0002
G1 X199.983 Y197.064 E0.0742
G1 X199.981 Y197.067 E0.0002
G1 X199.889 Y197.187 E0.0074
G1 X199.887 Y197.190 E0.0002
G1 X198.932 Y198.366 E0.0742
G1 X198.930 Y198.368 E0.0002
G1 X198.831 Y198.483 E0.0074
G1 X198.829 Y198.486 E0.0002
G1 X197.807 Y199.603 E0.0742
G1 X197.804 Y199.606 E0.0002
G1 X197.699 Y199.715 E0.0074
G1 X197.697 Y199.717 E0.0002
G1 X196.610 Y200.772 E0.0742
G1 X196.607 Y200.774 E0.0002
G1 X196.495 Y200.876 E0.0074
G1 X196.493 Y200.879 E0.0002
G1 X195.346 Y201.868 E0.0742
G1 X195.343 Y201.870 E0.0002
G1 X195.225 Y201.965 E0.0074
G1 X195.223 Y201.967 E0.0002
G1 X194.019 Y202.886 E0.0742
G1 X194.016 Y202.888 E0.0002
G1 X193.893 Y202.977 E0.0074
G1 X193.890 Y202.979 E0.0002
G1 X192.634 Y203.825 E0.0742
G1 X192.631 Y203.826 E0.0002
G1 X192.503 Y203.907 E0.0074
G1 X192.500 Y203.909 E0.0002
G1 X191.196 Y204.679 E0.0742
G1 X191.193 Y204.681 E0.0002
G1 X191.060 Y204.754 E0.0074
G1 X191.058 Y204.756 E0.0002
G1 X189.710 Y205.447 E0.0742
G1 X189.707 Y205.449 E0.0002
G1 X189.570 Y205.514 E0.0074
G1 X189.567 Y205.515 E0.0002
G1 X188.181 Y206.126 E0.0742
G1 X188.178 Y206.127 E0.0002
G1 X188.038 Y206.184 E0.0074
G1 X188.034 Y206.185 E0.0002
G1 X186.615 Y206.713 E0.0742
G1 X186.611 Y206.714 E0.0002
G1 X186.468 Y206.763 E0.0074
G1 X186.465 Y206.764 E0.0002
G1 X185.016 Y207.206 E0.0742
G1 X185.013 Y207.207 E0.0002
G1 X184.867 Y207.247 E0.0074
G1 X184.863 Y207.248 E0.0002
G1 X183.391 Y207.603 E0.0742
G1 X183.388 Y207.604 E0.0002
G1 X183.240 Y207.635 E0.0074
G1 X183.236 Y207.636 E0.0002
G1 X181.746 Y207.904 E0.0742
G1 X181.742 Y207.904 E0.0002
G1 X181.592 Y207.927 E0.0074
G1 X181.589 Y207.927 E0.0002
G1 X180.085 Y208.106 E0.0742
G1 X180.082 Y208.107 E0.0002
G1 X179.931 Y208.120 E0.0074
G1 X179.927 Y208.120 E0.0002
G1 X178.415 Y208.210 E0.0742
G1 X178.412 Y208.210 E0.0002
G1 X178.261 Y208.215 E0.0074
G1 X178.257 Y208.215 E0.0002
G1 X176.743 Y208.215 E0.0742
G1 X176.739 Y208.215 E0.0002
G1 X176.588 Y208.210 E0.0074
G1 X176.585 Y208.210 E0.0002
G1 X175.073 Y208.120 E0.0742
G1 X175.069 Y208.120 E0.0002
G1 X174.918 Y208.107 E0.0074
G1 X174.915 Y208.106 E0.0002
G1 X173.411 Y207.927 E0.0742
G1 X173.408 Y207.927 E0.0002
G1 X173.258 Y207.904 E0.0074
G1 X173.254 Y207.904 E0.0002
G1 X171.764 Y207.636 E0.0742
G1 X171.760 Y207.635 E0.0002
G1 X171.612 Y207.604 E0.0074
G1 X171.609 Y207.603 E0.0002
G1 X170.137 Y207.248 E0.0742
G1 X170.133 Y207.247 E0.0002
G1 X169.987 Y207.207 E0.0074
G1 X169.984 Y207.206 E0.0002
G1 X168.535 Y206.764 E0.0742
G1 X168.532 Y206.763 E0.0002
G1 X168.389 Y206.714 E0.0074
G1 X168.385 Y206.713 E0.0002
G1 X166.966 Y206.185 E0.0742
G1 X166.962 Y206.184 E0.0002
G1 X166.822 Y206.127 E0.0074
G1 X166.819 Y206.126 E0.0002
G1 X165.433 Y205.515 E0.0742
G1 X165.430 Y205.514 E0.0002
G1 X165.293 Y205.449 E0.0074
G1 X165.290 Y205.447 E0.0002
G1 X163.942 Y204.756 E0.0742
G1 X163.940 Y204.754 E0.0002
G1 X163.807 Y204.681 E0.0074
G1 X163.804 Y204.679 E0.0002
G1 X162.500 Y203.909 E0.0742
G1 X162.497 Y203.907 E0.0002
G1 X162.369 Y203.827 E0.0074
G1 X162.366 Y203.825 E0.0002
G1 X161.110 Y202.979 E0.0742
G1 X161.107 Y202.977 E0.0002
G1 X160.984 Y202.888 E0.0074
G1 X160.981 Y202.886 E0.0002
G1 X159.777 Y201.967 E0.0742
G1 X159.775 Y201.965 E0.0002
G1 X159.657 Y201.870 E0.0074
G1 X159.654 Y201.868 E0.0002
G1 X158.507 Y200.879 E0.0742
G1 X158.505 Y200.876 E0.0002
G1 X158.393 Y200.774 E0.0074
G1 X158.390 Y200.772 E0.0002
G1 X157.303 Y199.717 E0.0742
G1 X157.301 Y199.715 E0.0002
G1 X157.196 Y199.606 E0.0074
G1 X157.193 Y199.603 E0.0002
